G90G94
G17
G21
(When using Fusion 360 for Personal Use, the feedrate of)
(rapid moves is reduced to match the feedrate of cutting)
(moves, which can increase machining time. Unrestricted rapid)
(moves are available with a Fusion 360 Subscription.)

(TOOL/MILL,3.175,0,12.7,0)
(STOCK/BLOCK,508,69.85,9.525,0, 0, 0)
M9
T1M6
S35000M3
G54
M9
G0X13.75Y11.411
Z25.875
G1Z8.128F1016
Y11.437Z8.002
Y11.51Z7.898
Y11.619Z7.83
Y11.745Z7.811
Y15.143Z7.981
Y17.95Z8.101
Y20.759Z8.202
Y23.522Z8.283
Y26.247Z8.344
Y29.067Z8.388
Y31.993Z8.412
Y36.286Z8.418
Y39.505Z8.401
Y42.309Z8.366
Y44.887Z8.317
Y47.66Z8.246
Y50.435Z8.156
Y53.205Z8.048
Y56.013Z7.918
Y58.106Z7.811
Y58.184Z7.826
Y58.254Z7.843
Y58.898
X13.786Y59.08
X13.89Y59.235
X14.044Y59.338
X14.226Y59.374
X15.814
X15.996Y59.338
X16.151Y59.235
X16.254Y59.08
X16.29Y58.898
Y58.828Z7.826
Y58.75Z7.811
Y58.749
Y56.296Z7.937
Y53.502Z8.063
Y50.746Z8.169
Y47.961Z8.257
Y45.107Z8.328
Y42.59Z8.373
Y39.728Z8.406
Y36.497Z8.42
Y31.144Z8.412
Y28.022Z8.384
Y25.249Z8.338
Y22.502Z8.274
Y19.775Z8.192
Y16.99Z8.09
Y14.167Z7.966
Y11.1Z7.811
Y11.022Z7.827
Y10.952Z7.843
Y10.927
X16.326Y10.745
X16.43Y10.59
X16.584Y10.487
X16.766Y10.451
X18.354
X18.536Y10.487
X18.69Y10.59
X18.794Y10.745
X18.83Y10.927
Y10.997Z7.827
Y11.075Z7.811
Y14.227Z7.97
Y16.982Z8.091
Y19.763Z8.193
Y22.485Z8.275
Y25.23Z8.34
Y28Z8.385
Y30.927Z8.413
Y36.195Z8.422
Y39.706Z8.407
Y42.565Z8.375
Y45.08Z8.33
Y47.928Z8.26
Y50.728Z8.171
Y53.481Z8.066
Y56.281Z7.939
Y58.775Z7.811
Y58.853Z7.827
Y58.922Z7.843
Y58.948
X18.866Y59.13
X18.969Y59.284
X19.124Y59.388
X19.306Y59.424
X20.894
X21.076Y59.388
X21.23Y59.284
X21.334Y59.13
X21.37Y58.948
Y58.878Z7.827
Y58.8Z7.811
Y58.799
Y56.345Z7.937
Y53.491Z8.067
Y50.73Z8.173
Y47.934Z8.261
Y45.182Z8.329
Y42.548Z8.376
Y39.689Z8.409
Y36.177Z8.423
Y30.91Z8.414
Y27.983Z8.387
Y25.219Z8.341
Y22.479Z8.277
Y19.759Z8.195
Y16.982Z8.092
Y14.166Z7.969
Y11.05Z7.811
Y10.972Z7.826
Y10.902Z7.843
Y10.877
X21.406Y10.695
X21.509Y10.54
X21.664Y10.437
X21.846Y10.401
X23.433
X23.616Y10.437
X23.77Y10.54
X23.873Y10.695
X23.91Y10.877
Y10.947Z7.826
Y11.025Z7.811
Y14.163Z7.97
Y16.909Z8.091
Y19.682Z8.194
Y22.493Z8.278
Y25.229Z8.342
Y27.99Z8.388
Y30.917Z8.416
Y36.184Z8.425
Y39.696Z8.411
Y42.555Z8.378
Y45.184Z8.331
Y47.933Z8.263
Y50.725Z8.174
Y53.549Z8.066
Y56.39Z7.936
Y58.825Z7.811
Y58.903Z7.826
Y58.973Z7.843
Y58.998
X23.946Y59.18
X24.049Y59.335
X24.204Y59.438
X24.386Y59.474
X25.973
X26.156Y59.438
X26.31Y59.335
X26.413Y59.18
X26.45Y58.998
Y58.928Z7.826
Y58.85Z7.811
Y56.415Z7.936
Y53.576Z8.066
Y50.756Z8.175
Y47.967Z8.263
Y45.128Z8.333
Y42.451Z8.381
Y39.788Z8.411
Y36.483Z8.426
Y31.008Z8.418
Y28.082Z8.391
Y25.155Z8.343
Y22.423Z8.278
Y19.711Z8.196
Y16.941Z8.093
Y14.133Z7.97
Y11Z7.811
Y10.922Z7.827
Y10.852Z7.843
Y10.827
X26.486Y10.645
X26.589Y10.491
X26.744Y10.387
X26.926Y10.351
X28.513
X28.695Y10.387
X28.85Y10.491
X28.953Y10.645
X28.989Y10.827
Y10.897Z7.827
Y10.975Z7.811
Y14.065Z7.968
Y16.868Z8.092
Y19.633Z8.195
Y22.434Z8.28
Y25.163Z8.344
Y27.891Z8.39
Y31.012Z8.419
Y36.475Z8.427
Y39.792Z8.413
Y42.455Z8.383
Y45.13Z8.335
Y47.966Z8.265
Y50.751Z8.176
Y53.568Z8.068
Y56.411Z7.938
Y58.875Z7.811
Y58.953Z7.827
Y59.023Z7.843
Y59.048
X29.026Y59.23
X29.129Y59.385
X29.283Y59.488
X29.466Y59.524
X31.053
X31.235Y59.488
X31.39Y59.385
X31.493Y59.23
X31.529Y59.048
Y58.978Z7.827
Y58.9Z7.811
Y56.454Z7.937
Y53.623Z8.067
Y50.823Z8.175
Y47.963Z8.266
Y45.225Z8.334
Y42.433Z8.384
Y39.77Z8.414
Y36.063Z8.429
Y30.99Z8.421
Y28.064Z8.393
Y25.144Z8.345
Y22.42Z8.281
Y19.622Z8.196
Y16.861Z8.093
Y14.061Z7.97
Y10.95Z7.811
Y10.872Z7.827
Y10.802Z7.843
Y10.777
X31.566Y10.595
X31.669Y10.44
X31.823Y10.337
X32.006Y10.301
X33.593
X33.775Y10.337
X33.93Y10.44
X34.033Y10.595
X34.069Y10.777
Y10.847Z7.827
Y10.925Z7.811
Y14.065Z7.971
Y16.862Z8.095
Y19.62Z8.197
Y22.415Z8.282
Y25.135Z8.347
Y28.049Z8.395
Y30.975Z8.422
Y36.048Z8.431
Y39.755Z8.416
Y42.613Z8.383
Y45.233Z8.335
Y47.968Z8.268
Y50.824Z8.177
Y53.633Z8.068
Y56.47Z7.938
Y58.925Z7.811
Y59.004Z7.826
Y59.073Z7.843
Y59.098
X34.105Y59.281
X34.209Y59.435
X34.363Y59.538
X34.545Y59.575
X36.133
X36.315Y59.538
X36.47Y59.435
X36.573Y59.281
X36.609Y59.098
Y59.029Z7.826
Y58.951Z7.811
Y56.504Z7.938
Y53.615Z8.07
Y50.809Z8.179
Y48.034Z8.267
Y45.207Z8.338
Y42.592Z8.385
Y39.733Z8.418
Y36.026Z8.432
Y30.954Z8.424
Y28.027Z8.396
Y25.117Z8.348
Y22.401Z8.283
Y19.611Z8.198
Y16.779Z8.093
Y13.998Z7.969
Y10.9Z7.811
Y10.822Z7.827
Y10.752Z7.843
Y10.727
X36.645Y10.544
X36.748Y10.39
X36.903Y10.287
X37.085Y10.25
X38.673
X38.855Y10.287
X39.009Y10.39
X39.113Y10.544
X39.149Y10.727
Y10.797Z7.827
Y10.875Z7.811
Y13.994Z7.971
Y16.771Z8.094
Y19.599Z8.2
Y22.386Z8.284
Y25.098Z8.349
Y28.002Z8.397
Y30.929Z8.425
Y36.196Z8.434
Y39.708Z8.419
Y42.397Z8.39
Y45.18Z8.34
Y48.032Z8.269
Y50.88Z8.178
Y53.683Z8.068
Y56.513Z7.939
Y58.976Z7.811
Y59.054Z7.826
Y59.124Z7.843
Y59.149
X39.185Y59.331
X39.288Y59.485
X39.443Y59.589
X39.625Y59.625
X41.212
X41.395Y59.589
X41.549Y59.485
X41.652Y59.331
X41.689Y59.149
Y59.079Z7.826
Y59.001Z7.811
Y56.541Z7.939
Y53.665Z8.071
Y50.866Z8.18
Y48.02Z8.271
Y45.293Z8.339
Y42.393Z8.391
Y39.704Z8.421
Y36.193Z8.435
Y30.925Z8.426
Y27.998Z8.399
Y25.097Z8.35
Y22.39Z8.286
Y19.607Z8.201
Y16.783Z8.096
Y13.933Z7.969
Y10.849Z7.811
Y10.771Z7.826
Y10.701Z7.843
Y10.676
X41.725Y10.494
X41.828Y10.34
X41.983Y10.236
X42.165Y10.2
X43.752
X43.935Y10.236
X44.089Y10.34
X44.192Y10.494
X44.229Y10.676
Y10.746Z7.826
Y10.824Z7.811
Y13.904Z7.969
Y16.749Z8.096
Y19.57Z8.201
Y22.349Z8.286
Y25.221Z8.354
Y27.947Z8.4
Y30.874Z8.428
Y36.142Z8.437
Y39.653Z8.423
Y42.512Z8.391
Y45.17Z8.343
Y48.015Z8.272
Y50.875Z8.181
Y53.736Z8.069
Y56.54Z7.94
Y59.025Z7.811
Y59.104Z7.826
Y59.173Z7.843
Y59.199
X44.265Y59.381
X44.368Y59.535
X44.523Y59.639
X44.705Y59.675
X46.292
X46.474Y59.639
X46.629Y59.535
X46.732Y59.381
X46.768Y59.199
Y59.129Z7.826
Y59.051Z7.811
Y56.521Z7.943
Y53.705Z8.072
Y50.913Z8.181
Y48.074Z8.272
Y45.26Z8.342
Y42.485Z8.393
Y39.824Z8.423
Y36.117Z8.438
Y30.85Z8.429
Y27.923Z8.401
Y25.197Z8.355
Y22.33Z8.287
Y19.556Z8.202
Y16.739Z8.097
Y13.897Z7.97
Y10.8Z7.811
Y10.722Z7.827
Y10.652Z7.843
Y10.627
X46.805Y10.445
X46.908Y10.29
X47.062Y10.187
X47.245Y10.151
X48.832
X49.014Y10.187
X49.169Y10.29
X49.272Y10.445
X49.308Y10.627
Y10.697Z7.827
Y10.775Z7.811
Y13.893Z7.972
Y16.732Z8.098
Y19.545Z8.204
Y22.316Z8.289
Y25.134Z8.355
Y27.831Z8.401
Y30.953Z8.431
Y36.025Z8.44
Y39.732Z8.425
Y42.586Z8.392
Y45.189Z8.346
Y48.027Z8.275
Y50.879Z8.184
Y53.68Z8.075
Y56.558Z7.942
Y59.076Z7.811
Y59.154Z7.826
Y59.224Z7.843
Y59.249
X49.345Y59.431
X49.448Y59.586
X49.602Y59.689
X49.785Y59.725
X51.372
X51.554Y59.689
X51.709Y59.586
X51.812Y59.431
X51.848Y59.249
Y59.179Z7.826
Y59.101Z7.811
Y59.1
Y56.574Z7.943
Y53.699Z8.075
Y50.903Z8.184
Y48.054Z8.275
Y45.22Z8.346
Y42.404Z8.397
Y39.718Z8.427
Y36.011Z8.441
Y30.938Z8.432
Y27.817Z8.403
Y25.124Z8.357
Y22.31Z8.29
Y19.542Z8.205
Y16.732Z8.099
Y13.897Z7.973
Y10.75Z7.811
Y10.749
Y10.671Z7.827
Y10.602Z7.843
Y10.576
X51.884Y10.394
X51.988Y10.24
X52.142Y10.136
X52.324Y10.1
X53.912
X54.094Y10.136
X54.249Y10.24
X54.352Y10.394
X54.388Y10.576
Y10.646Z7.827
Y10.724Z7.811
Y13.894Z7.974
Y16.726Z8.101
Y19.532Z8.206
Y22.296Z8.291
Y25.107Z8.358
Y27.992Z8.406
Y30.918Z8.434
Y35.991Z8.443
Y39.893Z8.427
Y42.384Z8.399
Y45.195Z8.349
Y48.118Z8.275
Y50.945Z8.184
Y53.727Z8.075
Y56.597Z7.943
Y59.126Z7.811
Y59.204Z7.826
Y59.274Z7.843
Y59.299
X54.424Y59.481
X54.528Y59.636
X54.682Y59.739
X54.864Y59.775
X56.452
X56.634Y59.739
X56.788Y59.636
X56.892Y59.481
X56.928Y59.299
Y59.229Z7.826
Y59.151Z7.811
Y56.664Z7.941
Y53.741Z8.076
Y50.964Z8.185
Y48.14Z8.276
Y45.221Z8.349
Y42.63Z8.396
Y39.776Z8.429
Y36.362Z8.444
Y30.997Z8.436
Y27.875Z8.406
Y25.161Z8.36
Y22.309Z8.293
Y19.455Z8.205
Y16.654Z8.099
Y13.826Z7.973
Y10.699Z7.811
Y10.621Z7.826
Y10.551Z7.843
Y10.526
X56.964Y10.344
X57.067Y10.189
X57.222Y10.086
X57.404Y10.05
X58.992
X59.174Y10.086
X59.328Y10.189
X59.432Y10.344
X59.468Y10.526
Y10.596Z7.826
Y10.674Z7.811
Y13.831Z7.974
Y16.655Z8.101
Y19.453Z8.206
Y22.304Z8.294
Y25.153Z8.362
Y27.862Z8.408
Y30.983Z8.437
Y36.056Z8.446
Y39.763Z8.431
Y42.616Z8.398
Y45.255Z8.35
Y48.078Z8.279
Y50.991Z8.185
Y53.829Z8.074
Y56.685Z7.942
Y59.176Z7.811
Y59.254Z7.826
Y59.324Z7.843
Y59.349
X59.504Y59.531
X59.607Y59.686
X59.762Y59.789
X59.944Y59.825
X61.531
X61.714Y59.789
X61.868Y59.686
X61.971Y59.531
X62.008Y59.349
Y59.279Z7.826
Y59.201Z7.811
Y59.2
Y56.701Z7.942
Y53.785Z8.077
Y51.002Z8.186
Y48.093Z8.28
Y45.274Z8.351
Y42.521Z8.401
Y39.667Z8.434
Y35.96Z8.448
Y30.888Z8.438
Y27.961Z8.41
Y25.089Z8.362
Y22.289Z8.295
Y19.442Z8.207
Y16.648Z8.102
Y13.763Z7.973
Y10.649Z7.811
Y10.571Z7.826
Y10.501Z7.843
Y10.476
X62.044Y10.294
X62.147Y10.139
X62.302Y10.036
X62.484Y10
X64.071
X64.254Y10.036
X64.408Y10.139
X64.511Y10.294
X64.548Y10.476
Y10.546Z7.826
Y10.624Z7.811
Y13.796Z7.975
Y16.613Z8.102
Y19.404Z8.208
Y22.247Z8.296
Y25.043Z8.363
Y27.913Z8.411
Y30.839Z8.44
Y36.107Z8.449
Y39.814Z8.434
Y42.668Z8.4
Y45.248Z8.353
Y48.156Z8.28
Y50.987Z8.189
Y53.829Z8.077
Y56.742Z7.942
Y59.225Z7.811
Y59.304Z7.827
Y59.374Z7.843
Y59.399
X64.584Y59.581
X64.687Y59.735
X64.842Y59.839
X65.024Y59.875
X66.611
X66.793Y59.839
X66.948Y59.735
X67.051Y59.581
X67.087Y59.399
Y59.329Z7.827
Y59.25Z7.811
Y56.754Z7.942
Y53.845Z8.078
Y51.006Z8.189
Y48.178Z8.281
Y45.274Z8.354
Y42.645Z8.402
Y39.792Z8.435
Y36.085Z8.451
Y30.817Z8.441
Y27.891Z8.412
Y25.026Z8.364
Y22.233Z8.297
Y19.393Z8.209
Y16.606Z8.103
Y13.728Z7.974
Y10.599Z7.811
Y10.521Z7.827
Y10.451Z7.843
Y10.426
X67.124Y10.244
X67.227Y10.09
X67.381Y9.986
X67.564Y9.95
X69.151
X69.333Y9.986
X69.488Y10.09
X69.591Y10.244
X69.627Y10.426
Y10.496Z7.827
Y10.574Z7.811
Y13.725Z7.975
Y16.524Z8.101
Y19.384Z8.21
Y22.219Z8.298
Y25.008Z8.365
Y27.87Z8.414
Y30.797Z8.442
Y36.065Z8.452
Y39.772Z8.437
Y42.458Z8.407
Y45.368Z8.353
Y48.176Z8.282
Y50.999Z8.191
Y53.899Z8.077
Y56.749Z7.944
Y59.276Z7.811
Y59.354Z7.827
Y59.424Z7.843
Y59.449
X69.664Y59.631
X69.767Y59.786
X69.921Y59.889
X70.104Y59.925
X71.691
X71.873Y59.889
X72.028Y59.786
X72.131Y59.631
X72.167Y59.449
Y59.379Z7.827
Y59.301Z7.811
Y56.784Z7.944
Y53.88Z8.079
Y51.048Z8.191
Y48.153Z8.285
Y45.349Z8.355
Y42.444Z8.409
Y39.757Z8.439
Y36.05Z8.454
Y30.978Z8.445
Y27.856Z8.415
Y24.999Z8.366
Y22.214Z8.299
Y19.381Z8.211
Y16.524Z8.103
Y13.665Z7.973
Y10.549Z7.811
Y10.471Z7.827
Y10.401Z7.843
Y10.376
X72.203Y10.194
X72.307Y10.039
X72.461Y9.936
X72.643Y9.9
X74.231
X74.413Y9.936
X74.568Y10.039
X74.671Y10.194
X74.707Y10.376
Y10.446Z7.827
Y10.524Z7.811
Y13.662Z7.975
Y16.529Z8.104
Y19.382Z8.213
Y22.21Z8.3
Y24.992Z8.368
Y27.847Z8.416
Y30.968Z8.446
Y36.041Z8.455
Y39.748Z8.44
Y42.434Z8.41
Y45.337Z8.357
Y48.23Z8.284
Y51.046Z8.192
Y53.939Z8.078
Y56.777Z7.946
Y59.326Z7.811
Y59.404Z7.826
Y59.474Z7.843
Y59.499
X74.743Y59.682
X74.847Y59.836
X75.001Y59.939
X75.183Y59.976
X76.771
X76.953Y59.939
X77.107Y59.836
X77.211Y59.682
X77.247Y59.499
Y59.43Z7.826
Y59.351Z7.811
Y56.822Z7.945
Y53.923Z8.08
Y51.098Z8.192
Y48.209Z8.286
Y45.319Z8.359
Y42.586Z8.409
Y39.735Z8.442
Y36.223Z8.457
Y30.955Z8.448
Y27.834Z8.418
Y24.981Z8.369
Y22.202Z8.302
Y19.377Z8.214
Y16.528Z8.106
Y13.664Z7.976
Y10.499Z7.811
Y10.421Z7.826
Y10.351Z7.843
Y10.326
X77.283Y10.143
X77.386Y9.989
X77.541Y9.886
X77.723Y9.849
X79.311
X79.493Y9.886
X79.647Y9.989
X79.751Y10.143
X79.787Y10.326
Y10.396Z7.826
Y10.474Z7.811
Y13.66Z7.978
Y16.52Z8.107
Y19.367Z8.215
Y22.189Z8.303
Y24.965Z8.37
Y27.815Z8.419
Y30.937Z8.45
Y36.265Z8.458
Y39.716Z8.444
Y42.568Z8.411
Y45.297Z8.361
Y48.21Z8.287
Y51.095Z8.194
Y53.98Z8.079
Y56.799Z7.947
Y59.377Z7.811
Y59.455Z7.826
Y59.525Z7.843
Y59.55
X79.823Y59.732
X79.926Y59.887
X80.081Y59.99
X80.263Y60.026
X81.85
X82.033Y59.99
X82.187Y59.887
X82.29Y59.732
X82.327Y59.55
Y59.48Z7.826
Y59.402Z7.811
Y59.401
Y56.874Z7.945
Y53.989Z8.08
Y51.11Z8.194
Y48.229Z8.288
Y45.319Z8.362
Y42.545Z8.413
Y39.694Z8.445
Y36.377Z8.46
Y30.914Z8.451
Y27.793Z8.42
Y24.948Z8.371
Y22.175Z8.304
Y19.357Z8.216
Y16.514Z8.108
Y13.594Z7.976
Y10.449Z7.811
Y10.448
Y10.37Z7.826
Y10.3Z7.843
Y10.275
X82.363Y10.093
X82.466Y9.939
X82.621Y9.835
X82.803Y9.799
X84.39
X84.573Y9.835
X84.727Y9.939
X84.83Y10.093
X84.867Y10.275
Y10.345Z7.826
Y10.423Z7.811
Y13.623Z7.979
Y16.476Z8.108
Y19.315Z8.216
Y22.129Z8.304
Y25.061Z8.375
Y27.906Z8.423
Y31.125Z8.454
Y36.88Z8.46
Y39.807Z8.446
Y42.492Z8.415
Y45.38Z8.362
Y48.26Z8.289
Y51.135Z8.195
Y54.017Z8.08
Y56.891Z7.946
Y59.426Z7.811
Y59.427
Y59.505Z7.826
Y59.575Z7.843
Y59.6
X84.903Y59.782
X85.006Y59.937
X85.16Y60.04
X85.343Y60.076
X86.93
X87.112Y60.04
X87.267Y59.937
X87.37Y59.782
X87.406Y59.6
Y59.53Z7.826
Y59.452Z7.811
Y56.928Z7.945
Y53.994Z8.083
Y51.115Z8.197
Y48.233Z8.291
Y45.355Z8.364
Y42.471Z8.417
Y39.786Z8.448
Y36.908Z8.462
Y31.007Z8.455
Y27.885Z8.424
Y25.045Z8.376
Y22.117Z8.305
Y19.305Z8.217
Y16.469Z8.109
Y13.556Z7.977
Y10.399Z7.811
Y10.321Z7.827
Y10.251Z7.843
Y10.226
X87.443Y10.044
X87.546Y9.889
X87.7Y9.786
X87.883Y9.75
X89.47
X89.652Y9.786
X89.807Y9.889
X89.91Y10.044
X89.946Y10.226
Y10.296Z7.827
Y10.374Z7.811
Y13.56Z7.978
Y16.406Z8.108
Y19.222Z8.216
Y22.121Z8.307
Y25.045Z8.377
Y27.883Z8.426
Y31.005Z8.457
Y36.858Z8.464
Y39.784Z8.449
Y42.47Z8.419
Y45.351Z8.366
Y48.237Z8.293
Y51.192Z8.196
Y54.056Z8.082
Y56.93Z7.947
Y59.476Z7.811
Y59.555Z7.826
Y59.625Z7.843
Y59.65
X89.982Y59.832
X90.086Y59.986
X90.24Y60.09
X90.422Y60.126
X92.01
X92.192Y60.09
X92.347Y59.986
X92.45Y59.832
X92.486Y59.65
Y59.58Z7.826
Y59.501Z7.811
Y56.939Z7.948
Y54.068Z8.083
Y51.206Z8.197
Y48.256Z8.294
Y45.373Z8.367
Y42.631Z8.418
Y39.78Z8.451
Y36.853Z8.465
Y31Z8.458
Y27.879Z8.427
Y24.882Z8.376
Y22.125Z8.309
Y19.228Z8.218
Y16.4Z8.109
Y13.494Z7.977
Y10.349Z7.811
Y10.27Z7.827
Y10.201Z7.843
Y10.175
X92.522Y9.993
X92.626Y9.839
X92.78Y9.735
X92.962Y9.699
X94.55
X94.732Y9.735
X94.886Y9.839
X94.99Y9.993
X95.026Y10.175
Y10.245Z7.827
Y10.324Z7.811
Y13.491Z7.978
Y16.393Z8.11
Y19.218Z8.219
Y22.111Z8.31
Y24.864Z8.377
Y27.859Z8.429
Y31.176Z8.461
Y37.419Z8.466
Y39.955Z8.45
Y42.611Z8.419
Y45.349Z8.369
Y48.322Z8.293
Y51.192Z8.199
Y54.061Z8.085
Y56.984Z7.947
Y59.527Z7.811
Y59.605Z7.826
Y59.675Z7.843
Y59.7
X95.062Y59.882
X95.165Y60.037
X95.32Y60.14
X95.502Y60.176
X97.09
X97.272Y60.14
X97.426Y60.037
X97.53Y59.882
X97.566Y59.7
Y59.63Z7.826
Y59.552Z7.811
Y59.551
Y57.012Z7.947
Y54.092Z8.085
Y51.227Z8.199
Y48.284Z8.296
Y45.408Z8.369
Y42.72Z8.419
Y40.063Z8.451
Y37.527Z8.467
Y31.162Z8.462
Y27.845Z8.43
Y24.855Z8.378
Y22.105Z8.311
Y19.217Z8.22
Y16.32Z8.109
Y13.496Z7.98
Y10.298Z7.811
Y10.22Z7.826
Y10.15Z7.843
Y10.125
X97.602Y9.943
X97.705Y9.788
X97.86Y9.685
X98.042Y9.649
X99.629
X99.812Y9.685
X99.966Y9.788
X100.069Y9.943
X100.106Y10.125
Y10.195Z7.826
Y10.273Z7.811
Y13.429Z7.978
Y16.313Z8.11
Y19.205Z8.221
Y22.091Z8.312
Y25.002Z8.383
Y27.826Z8.431
Y30.85Z8.461
Y33.92Z8.464
Z7.811
Z7.81
Y33.956Z7.628
Y34.059Z7.473
Y34.213Z7.37
Y34.395Z7.333
Y35.453Z7.332
Y35.636Z7.368
Y35.79Z7.471
Y35.894Z7.625
Y35.93Z7.807
Z7.811
Y35.931Z8.464
Y39.832Z8.456
Y42.518Z8.424
Y45.415Z8.371
Y48.287Z8.297
Y51.226Z8.201
Y54.152Z8.083
Y57.012Z7.948
Y59.576Z7.811
Y59.577
Y59.655Z7.826
Y59.725Z7.843
Y59.75
X100.142Y59.932
X100.245Y60.087
X100.4Y60.19
X100.582Y60.226
X102.169
X102.352Y60.19
X102.506Y60.087
X102.609Y59.932
X102.646Y59.75
Y59.68Z7.826
Y59.602Z7.811
Y57.075Z7.946
Y54.155Z8.085
Y51.241Z8.202
Y48.304Z8.298
Y45.435Z8.372
Y42.588Z8.424
Y39.513Z8.46
Y35.807Z8.468
Y35.806Z7.811
Z7.808
Y35.769Z7.625
Y35.666Z7.471
Y35.511Z7.368
Y35.329Z7.332
Y34.52Z7.333
Y34.338Z7.37
Y34.184Z7.473
Y34.081Z7.628
Y34.044Z7.81
Z7.811
Z8.468
Y30.936Z8.464
Y27.815Z8.433
Y24.832Z8.381
Y22.089Z8.313
Y19.207Z8.223
Y16.318Z8.111
Y13.426Z7.979
Y10.248Z7.811
Y10.17Z7.826
Y10.1Z7.843
Y10.075
X102.682Y9.893
X102.785Y9.738
X102.94Y9.635
X103.122Y9.599
X104.709
X104.891Y9.635
X105.046Y9.738
X105.149Y9.893
X105.185Y10.075
Y10.145Z7.826
Y10.223Z7.811
Y13.385Z7.979
Y16.262Z8.111
Y19.147Z8.222
Y22.024Z8.313
Y24.883Z8.383
Y27.669Z8.432
Y30.79Z8.464
Y35.473Z8.474
Y39.57Z8.46
Y42.614Z8.426
Y45.475Z8.372
Y48.327Z8.299
Y51.269Z8.202
Y54.123Z8.088
Y57.043Z7.95
Y59.627Z7.811
Y59.705Z7.827
Y59.775Z7.843
Y59.8
X105.222Y59.982
X105.325Y60.137
X105.479Y60.24
X105.662Y60.276
X107.249
X107.431Y60.24
X107.586Y60.137
X107.689Y59.982
X107.725Y59.8
Y59.73Z7.827
Y59.652Z7.811
Y57.079Z7.949
Y54.162Z8.087
Y51.238Z8.205
Y48.385Z8.299
Y45.432Z8.375
Y42.592Z8.427
Y39.743Z8.46
Y35.451Z8.475
Y30.963Z8.466
Y27.842Z8.436
Y24.864Z8.385
Y22.009Z8.314
Y19.134Z8.224
Y16.252Z8.112
Y13.378Z7.98
Y10.198Z7.811
Y10.119Z7.826
Y10.05Z7.843
Y10.025
X107.762Y9.842
X107.865Y9.688
X108.019Y9.585
X108.202Y9.548
X109.789
X109.971Y9.585
X110.126Y9.688
X110.229Y9.842
X110.265Y10.025
Y10.094Z7.826
Y10.173Z7.811
Y13.383Z7.981
Y16.264Z8.114
Y19.143Z8.225
Y22.015Z8.316
Y24.867Z8.386
Y27.84Z8.437
Y30.767Z8.467
Y35.449Z8.477
Y39.742Z8.462
Y42.621Z8.428
Y45.458Z8.376
Y48.408Z8.299
Y51.258Z8.205
Y54.18Z8.088
Y57.149Z7.947
Y59.677Z7.811
Y59.756Z7.826
Y59.825Z7.843
Y59.851
X110.301Y60.033
X110.405Y60.187
X110.559Y60.291
X110.741Y60.327
X112.329
X112.511Y60.291
X112.666Y60.187
X112.769Y60.033
X112.805Y59.851
Y59.781Z7.826
Y59.702Z7.811
Y57.13Z7.95
Y54.22Z8.088
Y51.303Z8.205
Y48.381Z8.302
Y45.435Z8.378
Y42.767Z8.427
Y39.722Z8.463
Y35.82Z8.478
Y30.943Z8.469
Y27.821Z8.439
Y24.85Z8.387
Y22.002Z8.317
Y19.133Z8.226
Y16.258Z8.115
Y13.38Z7.983
Y10.148Z7.811
Y10.07Z7.827
Y10Z7.843
Y9.975
X112.841Y9.793
X112.945Y9.638
X113.099Y9.535
X113.281Y9.499
X114.869
X115.051Y9.535
X115.205Y9.638
X115.309Y9.793
X115.345Y9.975
Y10.045Z7.827
Z7.826
Y10.123Z7.811
Y13.313Z7.981
Y16.25Z8.116
Y19.123Z8.227
Y21.987Z8.318
Y24.832Z8.388
Y27.799Z8.44
Y30.921Z8.47
Y35.993Z8.48
Y39.895Z8.463
Y42.745Z8.429
Y45.455Z8.379
Y48.398Z8.303
Y51.317Z8.206
Y54.232Z8.089
Y57.194Z7.948
Y59.727Z7.811
Y59.806Z7.826
Y59.875Z7.843
Y59.901
X115.381Y60.083
X115.484Y60.237
X115.639Y60.341
X115.821Y60.377
X117.409
X117.591Y60.341
X117.745Y60.237
X117.849Y60.083
X117.885Y59.901
Y59.831Z7.826
Y59.752Z7.811
Y57.193Z7.949
Y54.234Z8.09
Y51.323Z8.208
Y48.408Z8.304
Y45.444Z8.381
Y42.57Z8.434
Y39.886Z8.465
Y35.594Z8.481
Y30.911Z8.472
Y27.79Z8.441
Y24.825Z8.39
Y21.983Z8.32
Y19.121Z8.229
Y16.179Z8.114
Y13.318Z7.982
Y10.098Z7.811
Y10.02Z7.826
Y9.95Z7.843
Y9.925
X117.921Y9.742
X118.024Y9.588
X118.179Y9.485
X118.361Y9.448
X119.948
X120.131Y9.485
X120.285Y9.588
X120.388Y9.742
X120.425Y9.925
Y9.994Z7.826
Y10.073Z7.811
Y13.252Z7.981
Y16.182Z8.116
Y19.031Z8.227
Y21.979Z8.321
Y24.818Z8.391
Y27.778Z8.443
Y30.9Z8.473
Y35.777Z8.483
Y39.874Z8.466
Y42.559Z8.436
Y45.545Z8.38
Y48.389Z8.306
Y51.316Z8.209
Y54.288Z8.089
Y57.243Z7.948
Y59.777Z7.811
Y59.856Z7.826
Y59.926Z7.843
Y59.951
X120.461Y60.133
X120.564Y60.287
X120.719Y60.391
X120.901Y60.427
X122.488
X122.671Y60.391
X122.825Y60.287
X122.928Y60.133
X122.965Y59.951
Y59.881Z7.826
Y59.802Z7.811
Y57.289Z7.947
Y54.282Z8.091
Y51.378Z8.208
Y48.471Z8.305
Y45.539Z8.381
Y42.555Z8.437
Y39.871Z8.468
Y35.969Z8.484
Y30.896Z8.475
Y27.775Z8.444
Y24.817Z8.393
Y21.981Z8.323
Y19.036Z8.229
Y16.175Z8.117
Y13.248Z7.982
Y10.048Z7.811
Y9.969Z7.826
Y9.899Z7.843
Y9.874
X123.001Y9.692
X123.104Y9.538
X123.259Y9.434
X123.441Y9.398
X125.028
X125.21Y9.434
X125.365Y9.538
X125.468Y9.692
X125.504Y9.874
Y9.944Z7.826
Y10.023Z7.811
Y13.214Z7.982
Y16.137Z8.117
Y19.069Z8.231
Y21.92Z8.322
Y24.75Z8.393
Y27.704Z8.445
Y30.825Z8.476
Y35.703Z8.486
Y39.8Z8.47
Y42.649Z8.437
Y45.466Z8.385
Y48.42Z8.308
Y51.415Z8.209
Y54.306Z8.091
Y57.309Z7.948
Y59.827Z7.811
Y59.906Z7.826
Y59.975Z7.843
Y60
X125.541Y60.183
X125.644Y60.337
X125.798Y60.44
X125.981Y60.477
X127.568
X127.75Y60.44
X127.905Y60.337
X128.008Y60.183
X128.044Y60
Y59.931Z7.826
Y59.852Z7.811
Y57.315Z7.949
Y54.314Z8.093
Y51.416Z8.21
Y48.424Z8.31
Y45.472Z8.386
Y42.825Z8.436
Y39.976Z8.47
Y35.879Z8.487
Y30.806Z8.477
Y27.684Z8.446
Y24.736Z8.394
Y21.908Z8.324
Y18.97Z8.23
Y16.131Z8.118
Y13.211Z7.983
Y9.997Z7.811
Y9.919Z7.826
Y9.849Z7.843
Y9.824
X128.081Y9.642
X128.184Y9.487
X128.338Y9.384
X128.521Y9.348
X130.108
X130.29Y9.384
X130.445Y9.487
X130.548Y9.642
X130.584Y9.824
Y9.894Z7.826
Y9.972Z7.811
Y9.973
Y13.153Z7.982
Y16.058Z8.117
Y18.967Z8.231
Y21.901Z8.325
Y24.725Z8.395
Y27.672Z8.447
Y30.793Z8.479
Y35.866Z8.489
Y39.768Z8.474
Y42.812Z8.437
Y45.502Z8.387
Y48.45Z8.31
Y51.439Z8.211
Y54.333Z8.093
Y57.273Z7.952
Y59.877Z7.811
Y59.956Z7.826
Y60.026Z7.843
Y60.051
X130.62Y60.233
X130.724Y60.387
X130.878Y60.491
X131.06Y60.527
X132.648
X132.83Y60.491
X132.985Y60.387
X133.088Y60.233
X133.124Y60.051
Y59.981Z7.826
Y59.902Z7.811
Y57.272Z7.954
Y54.33Z8.095
Y51.438Z8.212
Y48.453Z8.312
Y45.506Z8.388
Y42.801Z8.439
Y39.761Z8.475
Y35.859Z8.49
Y30.787Z8.48
Y27.665Z8.449
Y24.723Z8.397
Y21.902Z8.326
Y18.972Z8.233
Y16.051Z8.118
Y13.149Z7.983
Y9.948Z7.811
Y9.869Z7.826
Y9.799Z7.843
Y9.774
X133.16Y9.592
X133.263Y9.438
X133.418Y9.334
X133.6Y9.298
X135.188
X135.37Y9.334
X135.524Y9.438
X135.628Y9.592
X135.664Y9.774
Y9.844Z7.826
Y9.923Z7.811
Y13.159Z7.985
Y16.068Z8.12
Y18.987Z8.235
Y21.915Z8.328
Y24.732Z8.398
Y27.674Z8.45
Y30.795Z8.482
Y35.868Z8.492
Y39.77Z8.477
Y42.809Z8.44
Y45.513Z8.39
Y48.466Z8.313
Y51.456Z8.213
Y54.351Z8.095
Y57.296Z7.954
Y59.927Z7.811
Y59.928
Y60.006Z7.826
Y60.076Z7.843
Y60.101
X135.7Y60.283
X135.803Y60.438
X135.958Y60.541
X136.14Y60.577
X137.727
X137.91Y60.541
X138.064Y60.438
X138.167Y60.283
X138.204Y60.101
Y60.031Z7.826
Y59.953Z7.811
Y57.339Z7.953
Y54.397Z8.095
Y51.443Z8.215
Y48.53Z8.312
Y45.606Z8.389
Y42.788Z8.442
Y39.751Z8.478
Y35.849Z8.493
Y30.776Z8.484
Y27.801Z8.453
Y24.717Z8.4
Y21.901Z8.329
Y18.976Z8.236
Y16.061Z8.121
Y13.154Z7.986
Y9.898Z7.811
Y9.897
Y9.819Z7.826
Y9.749Z7.843
Y9.724
X138.24Y9.542
X138.343Y9.387
X138.498Y9.284
X138.68Y9.248
X140.267
X140.45Y9.284
X140.604Y9.387
X140.707Y9.542
X140.744Y9.724
Y9.794Z7.826
Y9.872Z7.811
Y13.09Z7.984
Y16.055Z8.122
Y18.966Z8.237
Y21.888Z8.33
Y24.7Z8.401
Y27.602Z8.453
Y30.919Z8.486
Y36.138Z8.495
Y39.893Z8.478
Y42.736Z8.445
Y45.55Z8.392
Y48.496Z8.315
Y51.479Z8.215
Y54.43Z8.095
Y57.362Z7.954
Y59.977Z7.811
Y59.978
Y60.056Z7.826
Y60.126Z7.843
Y60.151
X140.78Y60.333
X140.883Y60.488
X141.038Y60.591
X141.22Y60.627
X142.807
X142.989Y60.591
X143.144Y60.488
X143.247Y60.333
X143.283Y60.151
Y60.081Z7.826
Y60.003Z7.811
Y57.337Z7.956
Y54.408Z8.097
Y51.464Z8.217
Y48.558Z8.314
Y45.525Z8.394
Y42.83Z8.445
Y39.792Z8.481
Y36.378Z8.496
Y30.818Z8.487
Y27.696Z8.455
Y24.763Z8.403
Y21.839Z8.331
Y18.922Z8.237
Y16.013Z8.122
Y13.113Z7.987
Y9.847Z7.811
Y9.769Z7.826
Y9.699Z7.843
Y9.674
X143.32Y9.492
X143.423Y9.337
X143.577Y9.234
X143.76Y9.198
X145.347
X145.529Y9.234
X145.684Y9.337
X145.787Y9.492
X145.823Y9.674
Y9.744Z7.826
Y9.822Z7.811
Y13.048Z7.985
Y16.006Z8.123
Y18.911Z8.238
Y21.825Z8.332
Y24.746Z8.405
Y27.674Z8.456
Y30.991Z8.49
Y36.625Z8.497
Y39.771Z8.483
Y42.808Z8.446
Y45.615Z8.393
Y48.529Z8.317
Y51.503Z8.217
Y54.451Z8.097
Y57.369Z7.956
Y60.028Z7.811
Y60.106Z7.826
Y60.176Z7.843
Y60.201
X145.86Y60.383
X145.963Y60.538
X146.117Y60.641
X146.3Y60.677
X147.887
X148.069Y60.641
X148.224Y60.538
X148.327Y60.383
X148.363Y60.201
Y60.131Z7.826
Y60.053Z7.811
Y57.431Z7.954
Y54.448Z8.098
Y51.503Z8.219
Y48.523Z8.319
Y45.6Z8.395
Y42.635Z8.451
Y39.953Z8.482
Y36.685Z8.499
Y30.979Z8.491
Y27.662Z8.458
Y24.737Z8.406
Y21.82Z8.333
Y18.909Z8.239
Y15.935Z8.122
Y13.053Z7.987
Y9.797Z7.811
Y9.718Z7.826
Y9.649Z7.843
Y9.624
X148.399Y9.441
X148.503Y9.287
X148.657Y9.184
X148.839Y9.147
X150.427
X150.609Y9.184
X150.764Y9.287
X150.867Y9.441
X150.903Y9.624
Y9.693Z7.826
Y9.772Z7.811
Y9.773
Y12.988Z7.985
Y15.929Z8.123
Y18.901Z8.24
Y21.809Z8.334
Y24.723Z8.407
Y27.646Z8.459
Y30.962Z8.493
Y36.718Z8.5
Y39.937Z8.484
Y42.618Z8.453
Y45.564Z8.398
Y48.575Z8.319
Y51.536Z8.219
Y54.477Z8.099
Y57.456Z7.955
Y60.078Z7.811
Y60.156Z7.826
Y60.226Z7.843
Y60.251
X150.939Y60.434
X151.043Y60.588
X151.197Y60.691
X151.379Y60.728
X152.967
X153.149Y60.691
X153.303Y60.588
X153.407Y60.434
X153.443Y60.251
Y60.181Z7.826
Y60.103Z7.811
Y57.473Z7.955
Y54.497Z8.099
Y51.559Z8.22
Y48.602Z8.319
Y45.594Z8.398
Y42.607Z8.455
Y39.926Z8.486
Y36.804Z8.502
Y30.951Z8.495
Y27.634Z8.461
Y24.716Z8.409
Y21.807Z8.336
Y18.813Z8.239
Y15.933Z8.125
Y12.985Z7.986
Y9.747Z7.811
Y9.669Z7.826
Y9.599Z7.843
Y9.574
X153.479Y9.392
X153.582Y9.237
X153.737Y9.134
X153.919Y9.098
X155.507
X155.689Y9.134
X155.843Y9.237
X155.947Y9.392
X155.983Y9.574
Y9.644Z7.826
Y9.722Z7.811
Y12.928Z7.985
Y15.935Z8.126
Y18.827Z8.241
Y21.817Z8.337
Y24.723Z8.41
Y27.639Z8.462
Y30.956Z8.496
Y37.004Z8.503
Y39.931Z8.487
Y42.612Z8.456
Y45.596Z8.4
Y48.6Z8.321
Y51.555Z8.221
Y54.551Z8.098
Y57.516Z7.954
Y60.128Z7.811
Y60.207Z7.826
Y60.277Z7.843
Y60.302
X156.019Y60.484
X156.122Y60.638
X156.277Y60.742
X156.459Y60.778
X158.046
X158.229Y60.742
X158.383Y60.638
X158.486Y60.484
X158.523Y60.302
Y60.232Z7.826
Y60.153Z7.811
Y57.519Z7.956
Y54.549Z8.1
Y51.555Z8.223
Y48.589Z8.323
Y45.588Z8.402
Y42.768Z8.455
Y39.925Z8.489
Y36.804Z8.505
Y30.936Z8.498
Y27.619Z8.463
Y24.707Z8.411
Y21.804Z8.339
Y18.816Z8.242
Y15.855Z8.124
Y12.925Z7.986
Y9.697Z7.811
Y9.619Z7.826
Y9.549Z7.843
Y9.524
X158.559Y9.341
X158.662Y9.187
X158.817Y9.084
X158.999Y9.047
X160.586
X160.769Y9.084
X160.923Y9.187
X161.026Y9.341
X161.063Y9.524
Y9.593Z7.826
Y9.672Z7.811
Y12.922Z7.988
Y15.85Z8.126
Y18.808Z8.243
Y21.792Z8.34
Y24.692Z8.412
Y27.602Z8.465
Y30.723Z8.497
Y33.745Z8.498
Z7.811
Z7.809
Y33.781Z7.627
Y33.884Z7.473
Y34.038Z7.37
Y34.22Z7.333
Y35.628Z7.329
Y35.81Z7.365
Y35.965Z7.468
Y36.068Z7.622
Y36.105Z7.804
Z7.811
Y36.107Z8.499
Y39.812Z8.492
Y42.85Z8.455
Y45.621Z8.402
Y48.618Z8.323
Y51.581Z8.223
Y54.571Z8.1
Y57.537Z7.956
Y60.178Z7.811
Y60.257Z7.826
Y60.327Z7.843
Y60.352
X161.099Y60.534
X161.202Y60.688
X161.357Y60.792
X161.539Y60.828
X163.126
X163.308Y60.792
X163.463Y60.688
X163.566Y60.534
X163.602Y60.352
Y60.282Z7.826
Y60.203Z7.811
Y57.555Z7.957
Y54.583Z8.101
Y51.585Z8.225
Y48.624Z8.325
Y45.629Z8.404
Y42.655Z8.46
Y39.583Z8.496
Y35.487Z8.507
Y35.486Z7.811
Z7.809
Y35.45Z7.627
Y35.346Z7.473
Y35.192Z7.37
Y35.009Z7.333
Y34.84Z7.334
Y34.657Z7.37
Y34.503Z7.473
Y34.4Z7.628
Y34.364Z7.81
Z7.811
Z8.507
Y31.006Z8.501
Y27.689Z8.467
Y24.622Z8.413
Y21.726Z8.339
Y18.746Z8.243
Y15.807Z8.125
Y12.883Z7.987
Y9.647Z7.811
Y9.568Z7.826
Y9.498Z7.843
Y9.473
X163.639Y9.291
X163.742Y9.137
X163.896Y9.033
X164.079Y8.997
X165.666
X165.848Y9.033
X166.003Y9.137
X166.106Y9.291
X166.142Y9.473
Y9.543Z7.826
Y9.622Z7.811
Y12.871Z7.988
Y15.865Z8.129
Y18.817Z8.246
Y21.704Z8.34
Y24.598Z8.414
Y27.661Z8.468
Y31.173Z8.503
Y37.611Z8.508
Y40.147Z8.491
Y42.793Z8.459
Y45.717Z8.403
Y48.617Z8.326
Y51.574Z8.227
Y54.567Z8.104
Y57.584Z7.957
Y60.228Z7.811
Y60.307Z7.826
Y60.377Z7.843
Y60.402
X166.179Y60.584
X166.282Y60.739
X166.436Y60.842
X166.619Y60.878
X168.206
X168.388Y60.842
X168.543Y60.739
X168.646Y60.584
X168.682Y60.402
Y60.332Z7.826
Y60.254Z7.811
Y57.632Z7.956
Y54.618Z8.103
Y51.628Z8.226
Y48.602Z8.328
Y45.705Z8.405
Y42.783Z8.461
Y40.137Z8.492
Y37.503Z8.509
Y31.163Z8.505
Y27.651Z8.47
Y24.59Z8.415
Y21.699Z8.342
Y18.814Z8.248
Y15.794Z8.128
Y12.875Z7.99
Y9.596Z7.811
Y9.518Z7.826
Y9.448Z7.843
Y9.423
X168.718Y9.241
X168.822Y9.086
X168.976Y8.983
X169.158Y8.947
X170.746
X170.928Y8.983
X171.083Y9.086
X171.186Y9.241
X171.222Y9.423
Y9.493Z7.826
Y9.571Z7.811
Y12.811Z7.988
Y15.797Z8.129
Y18.742Z8.247
Y21.713Z8.344
Y24.601Z8.417
Y27.657Z8.471
Y30.974Z8.505
Y36.827Z8.512
Y39.948Z8.496
Y42.789Z8.462
Y45.707Z8.406
Y48.691Z8.327
Y51.64Z8.227
Y54.627Z8.104
Y57.638Z7.957
Y60.278Z7.811
Y60.357Z7.826
Y60.427Z7.843
Y60.452
X171.258Y60.634
X171.362Y60.789
X171.516Y60.892
X171.698Y60.928
X173.286
X173.468Y60.892
X173.622Y60.789
X173.726Y60.634
X173.762Y60.452
Y60.382Z7.826
Y60.303Z7.811
Y57.667Z7.957
Y54.66Z8.104
Y51.687Z8.227
Y48.668Z8.329
Y45.687Z8.408
Y42.771Z8.464
Y39.93Z8.498
Y36.723Z8.514
Y30.956Z8.507
Y27.639Z8.472
Y24.585Z8.418
Y21.7Z8.345
Y18.733Z8.248
Y15.79Z8.13
Y12.807Z7.989
Y9.547Z7.811
Y9.468Z7.826
Y9.398Z7.843
Y9.373
X173.798Y9.191
X173.901Y9.037
X174.056Y8.933
X174.238Y8.897
X175.826
X176.008Y8.933
X176.162Y9.037
X176.266Y9.191
X176.302Y9.373
Y9.443Z7.826
Y9.522Z7.811
Y12.812Z7.991
Y15.793Z8.132
Y18.731Z8.249
Y21.695Z8.346
Y24.575Z8.419
Y27.626Z8.474
Y30.942Z8.508
Y36.6Z8.516
Y39.917Z8.499
Y42.758Z8.466
Y45.671Z8.41
Y48.673Z8.331
Y51.69Z8.228
Y54.67Z8.105
Y57.675Z7.958
Y60.329Z7.811
Y60.407Z7.826
Y60.477Z7.843
Y60.502
X176.338Y60.685
X176.441Y60.839
X176.596Y60.942
X176.778Y60.979
X178.365
X178.548Y60.942
X178.702Y60.839
X178.805Y60.685
X178.842Y60.502
Y60.432Z7.826
Y60.354Z7.811
Y60.353
Y57.734Z7.957
Y54.672Z8.106
Y51.694Z8.23
Y48.681Z8.332
Y45.682Z8.412
Y42.772Z8.467
Y39.897Z8.501
Y36.483Z8.517
Y30.922Z8.509
Y27.606Z8.475
Y24.559Z8.42
Y21.682Z8.347
Y18.721Z8.251
Y15.714Z8.13
Y12.748Z7.989
Y9.497Z7.811
Y9.418Z7.826
Y9.348Z7.843
Y9.323
X178.878Y9.141
X178.981Y8.986
X179.136Y8.883
X179.318Y8.847
X180.905
X181.088Y8.883
X181.242Y8.986
X181.345Y9.141
X181.382Y9.323
Y9.393Z7.826
Y9.472Z7.811
Y12.752Z7.991
Y15.726Z8.132
Y18.643Z8.249
Y21.688Z8.349
Y24.563Z8.422
Y27.607Z8.477
Y30.924Z8.511
Y36.338Z8.519
Y39.898Z8.503
Y42.774Z8.469
Y45.679Z8.413
Y48.675Z8.334
Y51.7Z8.231
Y54.736Z8.105
Y57.733Z7.958
Y60.378Z7.811
Y60.457Z7.826
Y60.527Z7.843
Y60.552
X181.418Y60.734
X181.521Y60.889
X181.676Y60.992
X181.858Y61.028
X183.445
X183.627Y60.992
X183.782Y60.889
X183.885Y60.734
X183.921Y60.552
Y60.482Z7.826
Y60.403Z7.811
Y57.792Z7.956
Y54.737Z8.106
Y51.767Z8.23
Y48.762Z8.332
Y45.681Z8.415
Y42.778Z8.47
Y39.742Z8.506
Y35.84Z8.521
Y30.768Z8.511
Y27.646Z8.479
Y24.604Z8.424
Y21.619Z8.348
Y18.666Z8.252
Y15.665Z8.131
Y12.706Z7.99
Y9.446Z7.811
Y9.368Z7.826
Y9.298Z7.843
Y9.273
X183.958Y9.09
X184.061Y8.936
X184.215Y8.833
X184.398Y8.797
X185.985
X186.167Y8.833
X186.322Y8.936
X186.425Y9.09
X186.461Y9.273
Y9.343Z7.826
Y9.421Z7.811
Y12.711Z7.992
Y15.678Z8.133
Y18.676Z8.253
Y21.627Z8.35
Y24.608Z8.426
Y27.646Z8.48
Y30.768Z8.512
Y35.84Z8.522
Y39.742Z8.507
Y42.778Z8.472
Y45.721Z8.415
Y48.71Z8.336
Y51.728Z8.233
Y54.757Z8.107
Y57.809Z7.957
Y60.429Z7.811
Y60.507Z7.826
Y60.577Z7.843
Y60.602
X186.497Y60.785
X186.601Y60.939
X186.755Y61.042
X186.938Y61.079
X188.525
X188.707Y61.042
X188.862Y60.939
X188.965Y60.785
X189.001Y60.602
Y60.533Z7.826
Y60.454Z7.811
Y57.813Z7.958
Y54.771Z8.108
Y51.735Z8.234
Y48.719Z8.337
Y45.733Z8.416
Y42.792Z8.473
Y39.917Z8.507
Y35.624Z8.524
Y30.747Z8.514
Y27.625Z8.481
Y24.591Z8.427
Y21.613Z8.351
Y18.665Z8.254
Y15.671Z8.134
Y12.646Z7.99
Y9.396Z7.811
Y9.317Z7.826
Y9.247Z7.843
Y9.222
X189.037Y9.04
X189.141Y8.886
X189.295Y8.782
X189.477Y8.746
X191.065
X191.247Y8.782
X191.401Y8.886
X191.505Y9.04
X191.541Y9.222
Y9.292Z7.826
Y9.371Z7.811
Y12.643Z7.991
Y15.592Z8.132
Y18.568Z8.253
Y21.6Z8.352
Y24.575Z8.428
Y27.607Z8.483
Y30.729Z8.515
Y35.802Z8.525
Y39.899Z8.509
Y42.916Z8.472
Y45.711Z8.419
Y48.783Z8.336
Y51.779Z8.234
Y54.801Z8.108
Y57.783Z7.961
Y60.478Z7.811
Y60.479
Y60.557Z7.826
Y60.627Z7.843
Y60.652
X191.577Y60.835
X191.68Y60.989
X191.835Y61.092
X192.017Y61.129
X193.605
X193.787Y61.092
X193.941Y60.989
X194.045Y60.835
X194.081Y60.652
Y60.583Z7.826
Y60.504Z7.811
Y57.796Z7.962
Y54.805Z8.109
Y51.785Z8.235
Y48.79Z8.338
Y45.711Z8.42
Y42.918Z8.473
Y39.691Z8.513
Y35.594Z8.527
Y30.716Z8.516
Y27.595Z8.484
Y24.567Z8.429
Y21.596Z8.354
Y18.567Z8.254
Y15.595Z8.134
Y12.647Z7.993
Y9.347Z7.811
Y9.346
Y9.268Z7.826
Y9.198Z7.843
Y9.173
X194.117Y8.991
X194.22Y8.836
X194.375Y8.733
X194.557Y8.697
X196.144
X196.327Y8.733
X196.481Y8.836
X196.584Y8.991
X196.621Y9.173
Y9.243Z7.826
Y9.321Z7.811
Y12.591Z7.992
Y15.6Z8.136
Y18.577Z8.256
Y21.594Z8.355
Y24.55Z8.431
Y27.558Z8.485
Y30.68Z8.518
Y35.558Z8.528
Y39.85Z8.512
Y42.722Z8.479
Y45.782Z8.42
Y48.77Z8.34
Y51.785Z8.237
Y54.759Z8.113
Y57.81Z7.963
Y60.529Z7.811
Y60.608Z7.826
Y60.678Z7.843
Y60.703
X196.657Y60.885
X196.76Y61.04
X196.915Y61.143
X197.097Y61.179
X198.684
X198.867Y61.143
X199.021Y61.04
X199.124Y60.885
X199.161Y60.703
Y60.633Z7.826
Y60.554Z7.811
Y57.84Z7.963
Y54.793Z8.113
Y51.762Z8.239
Y48.752Z8.342
Y45.767Z8.422
Y42.709Z8.48
Y39.837Z8.514
Y35.935Z8.53
Y30.863Z8.52
Y27.546Z8.486
Y24.541Z8.432
Y21.587Z8.356
Y18.574Z8.257
Y15.6Z8.137
Y12.587Z7.993
Y9.296Z7.811
Y9.217Z7.826
Y9.148Z7.843
Y9.123
X199.197Y8.94
X199.3Y8.786
X199.455Y8.683
X199.637Y8.646
X201.224
X201.406Y8.683
X201.561Y8.786
X201.664Y8.94
X201.7Y9.123
Y9.192Z7.826
Y9.271Z7.811
Y12.59Z7.995
Y15.528Z8.136
Y18.573Z8.259
Y21.583Z8.358
Y24.533Z8.433
Y27.536Z8.488
Y30.852Z8.522
Y36.315Z8.531
Y39.827Z8.516
Y42.855Z8.479
Y45.753Z8.423
Y48.821Z8.341
Y51.83Z8.238
Y54.798Z8.114
Y57.842Z7.964
Y60.579Z7.811
Y60.658Z7.826
Y60.728Z7.843
Y60.753
X201.737Y60.935
X201.84Y61.09
X201.994Y61.193
X202.177Y61.229
X203.764
X203.946Y61.193
X204.101Y61.09
X204.204Y60.935
X204.24Y60.753
Y60.683Z7.826
Y60.604Z7.811
Y57.892Z7.963
Y54.851Z8.113
Y51.826Z8.24
Y48.821Z8.343
Y45.731Z8.426
Y42.946Z8.479
Y39.918Z8.516
Y36.504Z8.532
Y30.944Z8.524
Y27.432Z8.488
Y24.471Z8.434
Y21.512Z8.357
Y18.506Z8.258
Y15.545Z8.138
Y12.54Z7.994
Y9.246Z7.811
Y9.167Z7.826
Y9.097Z7.843
Y9.072
X204.277Y8.89
X204.38Y8.735
X204.534Y8.632
X204.717Y8.596
X206.304
X206.486Y8.632
X206.641Y8.735
X206.744Y8.89
X206.78Y9.072
Y9.142Z7.826
Y9.221Z7.811
Y12.544Z7.995
Y15.547Z8.139
Y18.518Z8.26
Y21.531Z8.359
Y24.489Z8.435
Y27.502Z8.49
Y31.013Z8.526
Y36.769Z8.534
Y39.988Z8.517
Y42.821Z8.483
Y45.758Z8.426
Y48.819Z8.344
Y51.821Z8.241
Y54.842Z8.115
Y57.932Z7.962
Y60.629Z7.811
Y60.708Z7.826
Y60.778Z7.843
Y60.803
X206.816Y60.985
X206.92Y61.139
X207.074Y61.243
X207.256Y61.279
X208.844
X209.026Y61.243
X209.181Y61.139
X209.284Y60.985
X209.32Y60.803
Y60.733Z7.826
Y60.654Z7.811
Y57.945Z7.963
Y54.85Z8.116
Y51.833Z8.243
Y48.834Z8.345
Y45.775Z8.428
Y42.841Z8.484
Y39.969Z8.519
Y36.652Z8.535
Y30.994Z8.528
Y27.482Z8.492
Y24.472Z8.437
Y21.519Z8.361
Y18.509Z8.261
Y15.469Z8.138
Y12.481Z7.994
Y9.196Z7.811
Y9.117Z7.826
Y9.047Z7.843
Y9.022
X209.356Y8.84
X209.46Y8.685
X209.614Y8.582
X209.796Y8.546
X211.384
X211.566Y8.582
X211.72Y8.685
X211.824Y8.84
X211.86Y9.022
Y9.092Z7.826
Y9.17Z7.811
Y12.486Z7.995
Y15.471Z8.139
Y18.508Z8.262
Y21.515Z8.362
Y24.465Z8.438
Y27.472Z8.493
Y30.984Z8.529
Y36.406Z8.537
Y39.917Z8.521
Y42.946Z8.484
Y45.832Z8.428
Y48.887Z8.345
Y51.883Z8.242
Y54.897Z8.116
Y57.982Z7.963
Y60.68Z7.811
Y60.758Z7.826
Y60.828Z7.843
Y60.853
X211.896Y61.036
X211.999Y61.19
X212.154Y61.293
X212.336Y61.33
X213.924
X214.106Y61.293
X214.26Y61.19
X214.364Y61.036
X214.4Y60.853
Y60.783Z7.826
Y60.705Z7.811
Y60.704
Y58.005Z7.963
Y54.923Z8.116
Y51.912Z8.242
Y48.832Z8.349
Y45.865Z8.428
Y42.983Z8.485
Y40.15Z8.52
Y37.565Z8.535
Y30.877Z8.531
Y27.463Z8.494
Y24.459Z8.439
Y21.513Z8.363
Y18.509Z8.264
Y15.476Z8.141
Y12.423Z7.994
Y9.146Z7.811
Y9.067Z7.826
Y8.997Z7.843
Y8.972
X214.436Y8.79
X214.539Y8.636
X214.694Y8.532
X214.876Y8.496
X216.463
X216.646Y8.532
X216.8Y8.636
X216.903Y8.79
X216.94Y8.972
Y9.042Z7.826
Y9.121Z7.811
Y12.42Z7.995
Y15.47Z8.142
Y18.414Z8.262
Y21.501Z8.365
Y24.445Z8.441
Y27.407Z8.495
Y30.724Z8.53
Y33.47Z8.529
Z7.811
Z7.81
Y33.506Z7.628
Y33.609Z7.473
Y33.763Z7.37
Y33.945Z7.334
Y35.904Z7.331
Y36.086Z7.367
Y36.24Z7.47
Y36.344Z7.625
Y36.38Z7.807
Z7.811
Y36.381Z8.53
Y39.404Z8.529
Y42.764Z8.49
Y45.799Z8.432
Y48.874Z8.349
Y51.934Z8.243
Y54.942Z8.117
Y58.02Z7.964
Y60.73Z7.811
Y60.808Z7.826
Y60.878Z7.843
Y60.903
X216.976Y61.086
X217.079Y61.24
X217.234Y61.343
X217.416Y61.38
X219.003
X219.186Y61.343
X219.34Y61.24
X219.443Y61.086
X219.48Y60.903
Y60.833Z7.826
Y60.755Z7.811
Y60.754
Y58.049Z7.964
Y54.974Z8.117
Y51.897Z8.246
Y48.912Z8.349
Y45.866Z8.431
Y42.833Z8.49
Y39.766Z8.527
Y36.059Z8.542
Y30.791Z8.533
Y27.475Z8.498
Y24.476Z8.443
Y21.424Z8.364
Y18.428Z8.264
Y15.4Z8.14
Y12.365Z7.994
Y9.096Z7.811
Y9.017Z7.826
Y8.947Z7.843
Y8.922
X219.516Y8.74
X219.619Y8.585
X219.774Y8.482
X219.956Y8.446
X221.543
X221.725Y8.482
X221.88Y8.585
X221.983Y8.74
X222.019Y8.922
Y8.992Z7.826
Y9.071Z7.811
Y12.374Z7.995
Y15.418Z8.143
Y18.442Z8.266
Y21.436Z8.366
Y24.372Z8.442
Y27.522Z8.5
Y30.839Z8.534
Y36.107Z8.543
Y40.009Z8.526
Y42.881Z8.491
Y45.909Z8.432
Y48.866Z8.352
Y51.936Z8.246
Y55.009Z8.116
Y58.076Z7.964
Y60.779Z7.811
Y60.78
Y60.859Z7.826
Y60.928Z7.843
Y60.954
X222.056Y61.136
X222.159Y61.29
X222.313Y61.394
X222.496Y61.43
X224.083
X224.265Y61.394
X224.42Y61.29
X224.523Y61.136
X224.559Y60.954
Y60.884Z7.826
Y60.805Z7.811
Y58.061Z7.966
Y54.984Z8.119
Y51.985Z8.246
Y48.935Z8.351
Y45.896Z8.434
Y42.869Z8.493
Y39.802Z8.53
Y35.51Z8.545
Y30.632Z8.534
Y27.51Z8.501
Y24.518Z8.446
Y21.429Z8.367
Y18.44Z8.267
Y15.348Z8.141
Y12.379Z7.997
Y9.045Z7.811
Y8.967Z7.826
Y8.897Z7.843
Y8.872
X224.596Y8.689
X224.699Y8.535
X224.853Y8.432
X225.036Y8.395
X226.623
X226.805Y8.432
X226.96Y8.535
X227.063Y8.689
X227.099Y8.872
Y8.942Z7.826
Y9.02Z7.811
Y12.367Z7.998
Y15.404Z8.145
Y18.423Z8.268
Y21.41Z8.368
Y24.453Z8.447
Y27.444Z8.502
Y30.566Z8.535
Y35.443Z8.546
Y39.735Z8.532
Y42.801Z8.496
Y45.869Z8.436
Y48.931Z8.353
Y51.978Z8.247
Y54.986Z8.121
Y58.114Z7.965
Y60.829Z7.811
Y60.908Z7.826
Y60.978Z7.843
Y61.003
X227.135Y61.186
X227.239Y61.34
X227.393Y61.443
X227.575Y61.479
X229.163
X229.345Y61.443
X229.5Y61.34
X229.603Y61.185
X229.639Y61.003
Y60.933Z7.826
Y60.855Z7.811
Y60.854
Y58.101Z7.967
Y55.028Z8.12
Y51.965Z8.25
Y48.904Z8.355
Y45.846Z8.438
Y42.782Z8.497
Y39.911Z8.531
Y35.424Z8.548
Y30.547Z8.536
Y27.425Z8.503
Y24.438Z8.448
Y21.398Z8.369
Y18.413Z8.269
Y15.328Z8.143
Y12.304Z7.997
Y8.995Z7.811
Y8.916Z7.826
Y8.846Z7.843
Y8.821
X229.675Y8.639
X229.779Y8.485
X229.933Y8.381
X230.115Y8.345
X231.703
X231.885Y8.381
X232.039Y8.485
X232.143Y8.639
X232.179Y8.821
Y8.891Z7.826
Y8.97Z7.811
Y12.309Z7.998
Y15.34Z8.145
Y18.352Z8.269
Y21.42Z8.371
Y24.346Z8.448
Y27.485Z8.505
Y30.606Z8.538
Y35.679Z8.549
Y39.776Z8.534
Y42.996Z8.495
Y45.858Z8.439
Y48.914Z8.357
Y51.97Z8.251
Y55.03Z8.122
Y58.152Z7.966
Y60.88Z7.811
Y60.958Z7.826
Y61.028Z7.843
Y61.053
X232.215Y61.236
X232.318Y61.39
X232.473Y61.493
X232.655Y61.53
X234.242
X234.425Y61.493
X234.579Y61.39
X234.682Y61.236
X234.719Y61.053
Y60.984Z7.826
Y60.905Z7.811
Y60.904
Y58.168Z7.967
Y55.042Z8.123
Y51.986Z8.252
Y48.932Z8.358
Y45.88Z8.44
Y42.82Z8.5
Y39.755Z8.536
Y35.463Z8.551
Y30.585Z8.54
Y27.464Z8.506
Y24.482Z8.452
Y21.406Z8.372
Y18.342Z8.27
Y15.333Z8.146
Y12.306Z7.999
Y8.946Z7.811
Y8.867Z7.826
Y8.797Z7.843
Y8.772
X234.755Y8.59
X234.858Y8.435
X235.013Y8.332
X235.195Y8.296
X236.782
X236.965Y8.332
X237.119Y8.435
X237.222Y8.59
X237.259Y8.772
Y8.842Z7.826
Y8.921Z7.811
Y12.243Z7.998
Y15.327Z8.148
Y18.333Z8.271
Y21.394Z8.374
Y24.468Z8.453
Y27.447Z8.508
Y30.569Z8.541
Y35.447Z8.552
Y39.739Z8.538
Y42.804Z8.502
Y45.86Z8.442
Y48.994Z8.357
Y52.045Z8.251
Y55.099Z8.121
Y58.215Z7.965
Y60.93Z7.811
Y61.009Z7.826
Y61.079Z7.843
Y61.104
X237.295Y61.286
X237.398Y61.441
X237.553Y61.544
X237.735Y61.58
X239.322
X239.504Y61.544
X239.659Y61.441
X239.762Y61.286
X239.798Y61.104
Y61.034Z7.826
Y60.955Z7.811
Y58.246Z7.965
Y55.074Z8.124
Y52.023Z8.253
Y48.975Z8.359
Y45.955Z8.441
Y42.947Z8.501
Y39.923Z8.537
Y35.435Z8.554
Y30.558Z8.543
Y27.436Z8.509
Y24.46Z8.454
Y21.39Z8.375
Y18.331Z8.272
Y15.259Z8.146
Y12.248Z7.999
Y8.895Z7.811
Y8.816Z7.826
Y8.747Z7.843
Y8.722
X239.835Y8.539
X239.938Y8.385
X240.092Y8.282
X240.275Y8.245
X241.862
X242.044Y8.282
X242.199Y8.385
X242.302Y8.539
X242.338Y8.722
Y8.791Z7.826
Y8.87Z7.811
Y12.198Z7.998
Y15.276Z8.148
Y18.261Z8.272
Y21.315Z8.374
Y24.339Z8.453
Y27.467Z8.511
Y30.588Z8.544
Y35.466Z8.556
Y39.758Z8.541
Y42.823Z8.504
Y45.873Z8.445
Y49.001Z8.36
Y52.046Z8.254
Y55.093Z8.125
Y58.263Z7.966
Y60.98Z7.811
Y61.059Z7.826
Y61.129Z7.843
Y61.154
X242.375Y61.336
X242.478Y61.491
X242.632Y61.594
X242.815Y61.63
X244.402
X244.584Y61.594
X244.739Y61.491
X244.842Y61.336
X244.878Y61.154
Y61.084Z7.826
Y61.005Z7.811
Y58.261Z7.968
Y55.155Z8.123
Y52.11Z8.253
Y48.999Z8.362
Y45.874Z8.447
Y42.828Z8.506
Y39.762Z8.542
Y35.665Z8.557
Y30.593Z8.546
Y27.471Z8.512
Y24.347Z8.455
Y21.327Z8.376
Y18.274Z8.273
Y15.208Z8.147
Y12.203Z8
Y8.845Z7.811
Y8.766Z7.826
Y8.696Z7.843
Y8.671
X244.914Y8.489
X245.018Y8.334
X245.172Y8.231
X245.354Y8.195
X246.942
X247.124Y8.231
X247.279Y8.334
X247.382Y8.489
X247.418Y8.671
Y8.741Z7.826
Y8.82Z7.811
Y12.14Z7.998
Y15.202Z8.148
Y18.265Z8.275
Y21.314Z8.377
Y24.331Z8.456
Y27.452Z8.514
Y30.574Z8.547
Y35.451Z8.559
Y39.743Z8.544
Y42.963Z8.505
Y45.961Z8.446
Y48.998Z8.363
Y52.106Z8.255
Y55.147Z8.125
Y58.31Z7.966
Y61.03Z7.811
Y61.109Z7.826
Y61.179Z7.843
Y61.204
X247.454Y61.386
X247.558Y61.541
X247.712Y61.644
X247.894Y61.68
X249.482
X249.664Y61.644
X249.818Y61.541
X249.922Y61.386
X249.958Y61.204
Y61.134Z7.826
Y61.055Z7.811
Y58.308Z7.968
Y55.156Z8.127
Y52.106Z8.256
Y49.07Z8.362
Y45.951Z8.448
Y42.956Z8.507
Y39.931Z8.543
Y35.444Z8.56
Y30.567Z8.549
Y27.445Z8.515
Y24.326Z8.458
Y21.312Z8.379
Y18.266Z8.276
Y15.205Z8.15
Y12.137Z8
Y8.795Z7.811
Y8.716Z7.826
Y8.646Z7.843
Y8.621
X249.994Y8.439
X250.097Y8.284
X250.252Y8.181
X250.434Y8.145
X252.022
X252.204Y8.181
X252.358Y8.284
X252.462Y8.439
X252.498Y8.621
Y8.691Z7.826
Y8.77Z7.811
Y12.082Z7.998
Y15.137Z8.148
Y18.264Z8.278
Y21.307Z8.38
Y24.318Z8.459
Y27.433Z8.517
Y30.555Z8.55
Y35.432Z8.562
Y39.919Z8.545
Y42.944Z8.508
Y45.937Z8.45
Y49.053Z8.364
Y52.154Z8.256
Y55.19Z8.126
Y58.285Z7.971
Y61.08Z7.811
Y61.159Z7.826
Y61.229Z7.843
Y61.254
X252.534Y61.437
X252.637Y61.591
X252.792Y61.694
X252.974Y61.731
X254.561
X254.744Y61.694
X254.898Y61.591
X255.001Y61.437
X255.038Y61.254
Y61.184Z7.826
Y61.106Z7.811
Y61.105
Y58.298Z7.972
Y55.201Z8.127
Y52.169Z8.257
Y49.07Z8.365
Y45.957Z8.451
Y42.922Z8.51
Y39.857Z8.547
Y35.565Z8.563
Y30.687Z8.553
Y27.37Z8.517
Y24.274Z8.46
Y21.277Z8.381
Y18.246Z8.278
Y15.129Z8.149
Y12.083Z8
Y8.744Z7.811
Y8.666Z7.826
Y8.596Z7.843
Y8.571
X255.074Y8.388
X255.177Y8.234
X255.332Y8.131
X255.514Y8.094
X257.101
X257.284Y8.131
X257.438Y8.234
X257.541Y8.388
X257.578Y8.571
Y8.641Z7.826
Y8.719Z7.811
Y8.72
Y12.09Z8.002
Y15.137Z8.151
Y18.173Z8.277
Y21.286Z8.382
Y24.28Z8.461
Y27.373Z8.519
Y30.885Z8.556
Y36.153Z8.565
Y39.86Z8.549
Y42.923Z8.512
Y45.955Z8.452
Y49.064Z8.367
Y52.107Z8.261
Y55.206Z8.129
Y58.308Z7.973
Y61.13Z7.811
Y61.209Z7.826
Y61.279Z7.843
Y61.304
X257.614Y61.486
X257.717Y61.641
X257.872Y61.744
X258.054Y61.78
X259.641
X259.823Y61.744
X259.978Y61.641
X260.081Y61.486
X260.117Y61.304
Y61.234Z7.826
Y61.155Z7.811
Y58.372Z7.971
Y55.221Z8.13
Y52.194Z8.259
Y49.102Z8.367
Y45.995Z8.453
Y42.858Z8.515
Y40.021Z8.549
Y36.789Z8.566
Y30.949Z8.558
Y27.291Z8.519
Y24.226Z8.462
Y21.224Z8.382
Y18.19Z8.279
Y15.142Z8.153
Y12.085Z8.003
Y8.695Z7.811
Y8.616Z7.826
Y8.546Z7.843
Y8.521
X260.154Y8.339
X260.257Y8.184
X260.411Y8.081
X260.594Y8.045
X262.181
X262.363Y8.081
X262.518Y8.184
X262.621Y8.339
X262.657Y8.521
Y8.591Z7.826
Y8.67Z7.811
Y12.039Z8.002
Y15.082Z8.152
Y18.197Z8.281
Y21.228Z8.384
Y24.228Z8.463
Y27.291Z8.521
Y30.802Z8.559
Y37.475Z8.564
Y40.012Z8.551
Y42.88Z8.516
Y46.014Z8.454
Y49.118Z8.368
Y52.207Z8.26
Y55.242Z8.13
Y58.39Z7.971
Y61.18Z7.811
Y61.181
Y61.26Z7.826
Y61.33Z7.843
Y61.355
X262.694Y61.537
X262.797Y61.691
X262.951Y61.795
X263.134Y61.831
X264.721
X264.903Y61.795
X265.058Y61.691
X265.161Y61.537
X265.197Y61.355
Y61.285Z7.826
Y61.206Z7.811
Y58.376Z7.974
Y55.291Z8.129
Y52.2Z8.262
Y49.097Z8.371
Y45.972Z8.456
Y42.949Z8.516
Y39.397Z8.558
Y36.374Z8.559
Y36.373Z7.811
Z7.806
Y36.337Z7.624
Y36.233Z7.469
Y36.079Z7.366
Y35.896Z7.33
Y33.952Z7.333
Y33.77Z7.37
Y33.616Z7.473
Y33.513Z7.628
Y33.477Z7.81
Z7.811
Y33.476Z8.558
Y30.696Z8.559
Y27.282Z8.522
Y24.223Z8.465
Y21.226Z8.385
Y18.114Z8.28
Y15.087Z8.154
Y12.036Z8.004
Y8.645Z7.811
Y8.566Z7.826
Y8.496Z7.843
Y8.471
X265.233Y8.288
X265.337Y8.134
X265.491Y8.031
X265.673Y7.994
X267.261
X267.443Y8.031
X267.598Y8.134
X267.701Y8.288
X267.737Y8.471
Y8.541Z7.826
Y8.619Z7.811
Y11.975Z8.002
Y15.081Z8.155
Y18.105Z8.281
Y21.215Z8.386
Y24.208Z8.466
Y27.265Z8.524
Y30.777Z8.562
Y36.044Z8.571
Y39.751Z8.556
Y42.967Z8.517
Y45.987Z8.458
Y49.11Z8.372
Y52.21Z8.263
Y55.297Z8.131
Y58.438Z7.972
Y61.23Z7.811
Y61.231
Y61.31Z7.826
Y61.38Z7.843
Y61.405
X267.773Y61.587
X267.877Y61.741
X268.031Y61.845
X268.213Y61.881
X269.801
X269.983Y61.845
X270.137Y61.741
X270.241Y61.587
X270.277Y61.405
Y61.335Z7.826
Y61.256Z7.811
Y58.44Z7.973
Y55.301Z8.132
Y52.206Z8.265
Y49.109Z8.373
Y45.99Z8.459
Y42.972Z8.518
Y39.756Z8.558
Y36.049Z8.572
Y30.781Z8.563
Y27.27Z8.525
Y24.216Z8.467
Y21.226Z8.388
Y18.119Z8.283
Y15.013Z8.153
Y11.979Z8.004
Y8.594Z7.811
Y8.515Z7.826
Y8.445Z7.843
Y8.42
X270.313Y8.238
X270.416Y8.084
X270.571Y7.98
X270.753Y7.944
X272.341
X272.523Y7.98
X272.677Y8.084
X272.781Y8.238
X272.817Y8.42
Y8.49Z7.826
Y8.569Z7.811
Y11.918Z8.002
Y15.008Z8.155
Y18.11Z8.284
Y21.214Z8.389
Y24.201Z8.469
Y27.251Z8.526
Y30.763Z8.565
Y36.031Z8.574
Y39.738Z8.56
Y42.996Z8.52
Y46.01Z8.46
Y49.127Z8.374
Y52.221Z8.266
Y55.371Z8.13
Y58.5Z7.971
Y61.28Z7.811
Y61.281
Y61.36Z7.826
Y61.43Z7.843
Y61.455
X272.853Y61.637
X272.956Y61.792
X273.111Y61.895
X273.293Y61.931
X274.88
X275.063Y61.895
X275.217Y61.792
X275.32Y61.637
X275.357Y61.455
Y61.385Z7.826
Y61.306Z7.811
Y58.483Z7.974
Y55.351Z8.133
Y52.273Z8.265
Y49.114Z8.376
Y46.001Z8.462
Y42.991Z8.521
Y39.927Z8.559
Y35.83Z8.575
Y30.757Z8.566
Y27.246Z8.528
Y24.198Z8.47
Y21.213Z8.391
Y18.112Z8.286
Y15.012Z8.156
Y11.915Z8.003
Y8.544Z7.811
Y8.465Z7.826
Y8.395Z7.843
Y8.37
X275.393Y8.188
X275.496Y8.033
X275.651Y7.93
X275.833Y7.894
X277.42
X277.603Y7.93
X277.757Y8.033
X277.86Y8.188
X277.897Y8.37
Y8.44Z7.826
Y8.519Z7.811
Y8.52
Y11.861Z8.002
Y14.945Z8.155
Y18.026Z8.284
Y21.124Z8.39
Y24.214Z8.472
Y27.3Z8.53
Y30.617Z8.566
Y35.69Z8.577
Y39.787Z8.562
Y43.003Z8.523
Y46.01Z8.463
Y49.205Z8.375
Y52.292Z8.266
Y55.367Z8.133
Y58.548Z7.972
Y61.331Z7.811
Y61.41Z7.826
Y61.48Z7.843
Y61.505
X277.933Y61.687
X278.036Y61.842
X278.191Y61.945
X278.373Y61.981
X279.96
X280.142Y61.945
X280.297Y61.842
X280.4Y61.687
X280.436Y61.505
Y61.435Z7.826
Y61.356Z7.811
Y58.534Z7.974
Y55.408Z8.133
Y52.266Z8.268
Y49.182Z8.377
Y46.1Z8.462
Y42.986Z8.524
Y39.922Z8.562
Y35.63Z8.578
Y30.557Z8.567
Y27.241Z8.531
Y24.199Z8.473
Y21.112Z8.391
Y18.018Z8.285
Y14.939Z8.156
Y11.858Z8.003
Y8.494Z7.811
Y8.415Z7.826
Y8.346Z7.843
Y8.321
X280.473Y8.138
X280.576Y7.984
X280.73Y7.881
X280.913Y7.844
X282.5
X282.682Y7.881
X282.837Y7.984
X282.94Y8.138
X282.976Y8.321
Y8.39Z7.826
Y8.469Z7.811
Y11.812Z8.003
Y14.958Z8.158
Y18.049Z8.288
Y21.141Z8.393
Y24.225Z8.475
Y27.306Z8.533
Y30.623Z8.569
Y35.5Z8.58
Y39.792Z8.565
Y43.009Z8.525
Y46.119Z8.463
Y49.198Z8.378
Y52.349Z8.266
Y55.418Z8.134
Y58.587Z7.973
Y61.38Z7.811
Y61.381
Y61.46Z7.826
Y61.53Z7.843
Y61.555
X283.013Y61.737
X283.116Y61.892
X283.27Y61.995
X283.452Y62.031
X285.04
X285.222Y61.995
X285.377Y61.892
X285.48Y61.737
X285.516Y61.555
Y61.485Z7.826
Y61.406Z7.811
Y58.599Z7.974
Y55.426Z8.135
Y52.291Z8.271
Y49.212Z8.379
Y46.027Z8.467
Y43.028Z8.527
Y39.77Z8.567
Y35.478Z8.581
Y30.601Z8.57
Y27.284Z8.534
Y24.205Z8.476
Y21.123Z8.394
Y18.034Z8.289
Y14.947Z8.159
Y11.803Z8.004
Y8.444Z7.811
Y8.365Z7.826
Y8.295Z7.843
Y8.27
X285.552Y8.088
X285.656Y7.933
X285.81Y7.83
X285.992Y7.794
X287.58
X287.762Y7.83
X287.917Y7.933
X288.02Y8.088
X288.056Y8.27
Y8.34Z7.826
Y8.419Z7.811
Y11.8Z8.005
Y14.872Z8.158
Y18.025Z8.29
Y21.111Z8.396
Y24.19Z8.477
Y27.222Z8.535
Y30.539Z8.571
Y35.416Z8.583
Y39.904Z8.567
Y43.118Z8.526
Y46.07Z8.468
Y49.253Z8.379
Y52.328Z8.27
Y55.461Z8.135
Y58.631Z7.973
Y61.431Z7.811
Y61.51Z7.826
Y61.58Z7.843
Y61.605
X288.092Y61.788
X288.195Y61.942
X288.35Y62.045
X288.532Y62.082
X290.12
X290.302Y62.045
X290.456Y61.942
X290.56Y61.788
X290.596Y61.605
Y61.535Z7.826
Y61.456Z7.811
Y58.624Z7.975
Y55.45Z8.137
Y52.379Z8.27
Y49.237Z8.382
Y46.058Z8.47
Y42.957Z8.531
Y39.894Z8.568
Y35.406Z8.584
Y30.529Z8.573
Y27.212Z8.536
Y24.183Z8.479
Y21.107Z8.397
Y18.024Z8.291
Y14.873Z8.159
Y11.804Z8.007
Y8.394Z7.811
Y8.315Z7.826
Y8.245Z7.843
Y8.22
X290.632Y8.038
X290.735Y7.883
X290.89Y7.78
X291.072Y7.744
X292.659
X292.842Y7.78
X292.996Y7.883
X293.099Y8.038
X293.136Y8.22
Y8.29Z7.826
Y8.369Z7.811
Y11.743Z8.005
Y14.877Z8.161
Y17.942Z8.29
Y21.105Z8.398
Y24.179Z8.48
Y27.205Z8.538
Y30.521Z8.574
Y35.399Z8.586
Y39.886Z8.57
Y42.949Z8.533
Y46.091Z8.47
Y49.267Z8.382
Y52.406Z8.27
Y55.522Z8.135
Y58.686Z7.974
Y61.481Z7.811
Y61.56Z7.826
Y61.63Z7.843
Y61.655
X293.172Y61.837
X293.275Y61.992
X293.43Y62.095
X293.612Y62.131
X295.199
X295.382Y62.095
X295.536Y61.992
X295.639Y61.837
X295.676Y61.655
Y61.585Z7.826
Y61.506Z7.811
Y58.687Z7.975
Y55.519Z8.137
Y52.395Z8.272
Y49.244Z8.384
Y46.071Z8.472
Y43.083Z8.532
Y39.869Z8.572
Y35.381Z8.587
Y30.504Z8.575
Y27.187Z8.539
Y24.164Z8.481
Y21.094Z8.399
Y17.933Z8.291
Y14.872Z8.162
Y11.74Z8.006
Y8.344Z7.811
Y8.265Z7.826
Y8.195Z7.843
Y8.17
X295.712Y7.987
X295.815Y7.833
X295.97Y7.73
X296.152Y7.693
X297.739
X297.921Y7.73
X298.076Y7.833
X298.179Y7.987
X298.215Y8.17
Y8.24Z7.826
Y8.319Z7.811
Y11.686Z8.005
Y14.804Z8.161
Y17.946Z8.293
Y20.996Z8.398
Y24.171Z8.483
Y27.191Z8.541
Y30.508Z8.577
Y35.386Z8.589
Y39.873Z8.573
Y43.088Z8.533
Y46.072Z8.474
Y49.266Z8.385
Y52.415Z8.273
Y55.535Z8.138
Y58.7Z7.976
Y61.531Z7.811
Y61.61Z7.826
Y61.68Z7.843
Y61.705
X298.252Y61.888
X298.355Y62.042
X298.509Y62.145
X298.692Y62.182
X300.279
X300.461Y62.145
X300.616Y62.042
X300.719Y61.888
X300.755Y61.705
Y61.635Z7.826
Y61.556Z7.811
Y58.761Z7.974
Y55.546Z8.139
Y52.429Z8.274
Y49.284Z8.386
Y46.116Z8.474
Y43.027Z8.536
Y39.965Z8.574
Y35.477Z8.59
Y30.6Z8.579
Y27.283Z8.543
Y24.071Z8.482
Y21.007Z8.4
Y17.936Z8.294
Y14.797Z8.162
Y11.682Z8.006
Y8.294Z7.811
Y8.215Z7.826
Y8.145Z7.843
Y8.12
X300.792Y7.938
X300.895Y7.783
X301.049Y7.68
X301.232Y7.644
X302.819
X303.001Y7.68
X303.156Y7.783
X303.259Y7.938
X303.295Y8.12
Y8.19Z7.826
Y8.269Z7.811
Y11.694Z8.008
Y14.817Z8.164
Y17.87Z8.293
Y21.022Z8.402
Y24.083Z8.484
Y27.293Z8.545
Y30.414Z8.58
Y35.292Z8.592
Y39.974Z8.575
Y43.036Z8.537
Y46.123Z8.476
Y49.287Z8.388
Y52.429Z8.276
Y55.544Z8.141
Y58.755Z7.976
Y61.581Z7.811
Y61.661Z7.826
Y61.73Z7.843
Y61.755
X303.331Y61.938
X303.435Y62.092
X303.589Y62.195
X303.771Y62.232
X305.359
X305.541Y62.195
X305.696Y62.092
X305.799Y61.938
X305.835Y61.755
Y61.686Z7.826
Y61.606Z7.811
Y58.773Z7.977
Y55.557Z8.142
Y52.445Z8.277
Y49.306Z8.389
Y46.145Z8.477
Y43.168Z8.536
Y39.955Z8.577
Y35.468Z8.593
Y30.591Z8.582
Y27.274Z8.546
Y24.067Z8.485
Y21.009Z8.403
Y17.86Z8.295
Y14.742Z8.163
Y11.633Z8.007
Y8.244Z7.811
Y8.165Z7.826
Y8.095Z7.843
Y8.07
X305.871Y7.887
X305.975Y7.733
X306.129Y7.63
X306.311Y7.593
X307.899
X308.081Y7.63
X308.235Y7.733
X308.339Y7.887
X308.375Y8.07
Y8.14Z7.826
Y8.219Z7.811
Y11.63Z8.008
Y14.736Z8.164
Y17.852Z8.296
Y20.998Z8.404
Y24.053Z8.487
Y27.257Z8.547
Y30.574Z8.583
Y35.256Z8.595
Y39.938Z8.578
Y43.151Z8.538
Y46.125Z8.479
Y49.308Z8.39
Y52.444Z8.278
Y55.621Z8.14
Y58.827Z7.975
Y61.632Z7.811
Y61.711Z7.826
Y61.781Z7.843
Y61.806
X308.411Y61.988
X308.514Y62.143
X308.669Y62.246
X308.851Y62.282
X310.439
X310.621Y62.246
X310.775Y62.143
X310.879Y61.988
X310.915Y61.806
Y61.736Z7.826
Y61.657Z7.811
Y61.656
Y58.82Z7.977
Y55.625Z8.141
Y52.45Z8.28
Y49.317Z8.391
Y46.137Z8.48
Y43.166Z8.539
Y39.953Z8.58
Y35.466Z8.596
Y30.589Z8.585
Y27.272Z8.549
Y24.071Z8.488
Y21.019Z8.406
Y17.876Z8.298
Y14.749Z8.166
Y11.577Z8.007
Y8.193Z7.811
Y8.114Z7.826
Y8.044Z7.843
Y8.019
X310.951Y7.837
X311.054Y7.683
X311.209Y7.579
X311.391Y7.543
X312.978
X313.161Y7.579
X313.315Y7.683
X313.418Y7.837
X313.455Y8.019
Y8.089Z7.826
Y8.168Z7.811
Y11.573Z8.008
Y14.674Z8.164
Y17.866Z8.299
Y21.007Z8.408
Y24.056Z8.49
Y27.254Z8.55
Y30.571Z8.586
Y35.254Z8.598
Y39.936Z8.582
Y42.998Z8.544
Y46.224Z8.479
Y49.377Z8.391
Y52.507Z8.279
Y55.621Z8.143
Y58.818Z7.979
Y61.682Z7.811
Y61.761Z7.826
Y61.831Z7.843
Y61.856
X313.491Y62.038
X313.594Y62.192
X313.749Y62.296
X313.931Y62.332
X315.518
X315.701Y62.296
X315.855Y62.192
X315.958Y62.038
X315.995Y61.856
Y61.786Z7.826
Y61.707Z7.811
Y61.706
Y58.81Z7.981
Y55.67Z8.142
Y52.501Z8.281
Y49.403Z8.392
Y46.206Z8.482
Y42.979Z8.546
Y39.917Z8.583
Y35.235Z8.6
Y30.552Z8.588
Y27.236Z8.552
Y24.04Z8.491
Y20.996Z8.409
Y17.853Z8.301
Y14.68Z8.166
Y11.582Z8.01
Y8.143Z7.811
Y8.064Z7.826
Y7.994Z7.843
Y7.969
X316.031Y7.787
X316.134Y7.632
X316.289Y7.529
X316.471Y7.493
X318.058
X318.24Y7.529
X318.395Y7.632
X318.498Y7.787
X318.534Y7.969
Y8.039Z7.826
Y8.118Z7.811
Y11.519Z8.008
Y14.682Z8.167
Y17.92Z8.305
Y20.981Z8.411
Y24.038Z8.492
Y27.231Z8.553
Y30.548Z8.589
Y35.23Z8.601
Y39.912Z8.585
Y43.125Z8.545
Y46.326Z8.48
Y49.365Z8.395
Y52.418Z8.286
Y55.709Z8.142
Y58.842Z7.98
Y61.731Z7.811
Y61.732
Y61.811Z7.826
Y61.881Z7.843
Y61.906
X318.571Y62.088
X318.674Y62.243
X318.828Y62.346
X319.011Y62.382
X320.598
X320.78Y62.346
X320.935Y62.243
X321.038Y62.088
X321.074Y61.906
Y61.836Z7.826
Y61.757Z7.811
Y58.893Z7.979
Y55.706Z8.144
Y52.284Z8.293
Y49.281Z8.4
Y46.457Z8.479
Y43.118Z8.546
Y39.905Z8.586
Y35.223Z8.603
Y30.541Z8.591
Y27.224Z8.555
Y23.884Z8.491
Y20.879Z8.409
Y17.994Z8.31
Y14.68Z8.169
Y11.52Z8.01
Y8.094Z7.811
Y8.014Z7.826
Y7.945Z7.843
Y7.92
X321.111Y7.737
X321.214Y7.583
X321.368Y7.48
X321.551Y7.443
X323.138
X323.32Y7.48
X323.475Y7.583
X323.578Y7.737
X323.614Y7.92
Y7.989Z7.826
Y8.068Z7.811
Y11.467Z8.009
Y14.614Z8.167
Y17.99Z8.311
Y20.597Z8.402
Y23.162Z8.475
Y25.229Z8.519
Y27.219Z8.556
Y30.536Z8.592
Y35.218Z8.604
Y39.9Z8.588
Y43.113Z8.548
Y46.449Z8.481
Y49.049Z8.408
Y51.584Z8.321
Y53.413Z8.246
Y55.737Z8.144
Y58.87Z7.982
Y61.782Z7.811
Y61.861Z7.826
Y61.931Z7.843
Y61.956
X323.65Y62.138
X323.754Y62.293
X323.908Y62.396
X324.09Y62.432
X325.678
X325.86Y62.396
X326.015Y62.293
X326.118Y62.138
X326.154Y61.956
Y61.886Z7.826
Y61.807Z7.811
Y58.899Z7.982
Y55.776Z8.143
Y52.649Z8.281
Y51.871Z8.309
Y49.636Z8.347
Y48.858Z8.343
Y48.743Z8.329
Y48.741Z7.811
Z7.8
Y48.704Z7.618
Y48.6Z7.464
Y48.445Z7.362
Y48.262Z7.326
Y46.983Z7.332
Y46.801Z7.369
Y46.647Z7.473
Y46.545Z7.628
Y46.509Z7.811
Y46.508Z8.47
Y46.336Z8.485
Y43.123Z8.549
Y39.866Z8.59
Y35.379Z8.606
Y30.502Z8.594
Y27.185Z8.557
Y23.536Z8.485
Y23.343Z8.47
Y23.341Z7.811
Z7.803
Y23.304Z7.62
Y23.2Z7.466
Y23.045Z7.364
Y22.863Z7.328
Y21.584Z7.333
Y21.402Z7.369
Y21.248Z7.473
Y21.145Z7.627
Y21.109Z7.809
Z7.811
Z8.327
Y21.098Z8.331
Y20.935Z8.345
Y20.008
Y17.792Z8.304
Y14.608Z8.169
Y11.464Z8.01
Y8.043Z7.811
Y7.964Z7.826
Y7.894Z7.843
Y7.869
X326.19Y7.687
X326.293Y7.532
X326.448Y7.429
X326.63Y7.393
X328.218
X328.4Y7.429
X328.554Y7.532
X328.658Y7.687
X328.694Y7.869
Y7.939Z7.826
Y8.018Z7.811
Y11.411Z8.009
Y14.62Z8.171
Y17.924Z8.311
Y20.315Z8.364
Y21.372Z8.372
Y21.505Z8.364
Y21.515Z8.359
Z7.811
Z7.809
Y21.551Z7.627
Y21.654Z7.473
Y21.808Z7.37
Y21.99Z7.333
Y22.458Z7.332
Y22.64Z7.368
Y22.795Z7.47
Y22.898Z7.625
Y22.935Z7.807
Z7.811
Y22.937Z8.452
Y23.13Z8.472
Y23.597Z8.489
Y27.118Z8.558
Y30.435Z8.595
Y35.312Z8.607
Y39.995Z8.59
Y43.207Z8.549
Y46.489Z8.483
Y46.867Z8.46
Y46.915Z8.45
Z7.811
Y46.95Z7.628
Y47.052Z7.473
Y47.206Z7.369
Y47.388Z7.331
Y47.856Z7.328
Y48.038Z7.363
Y48.194Z7.466
Y48.298Z7.62
Y48.335Z7.802
Z7.811
Y48.339Z8.361
Y48.403Z8.37
Y49.213Z8.369
Y51.779Z8.316
Y52.885Z8.272
Y55.766Z8.145
Y58.944Z7.981
Y61.832Z7.811
Y61.911Z7.826
Y61.981Z7.843
Y62.006
X328.73Y62.188
X328.833Y62.343
X328.988Y62.446
X329.17Y62.482
X330.758
X330.94Y62.446
X331.094Y62.343
X331.198Y62.188
X331.234Y62.006
Y61.936Z7.826
Y61.857Z7.811
Y58.94Z7.983
Y55.764Z8.147
Y52.824Z8.276
Y51.167Z8.341
Y48.825Z8.42
Y46.33Z8.488
Y43.124Z8.553
Y39.912Z8.592
Y35.23Z8.609
Y30.548Z8.597
Y27.231Z8.561
Y24.2Z8.503
Y22.631Z8.465
Y20.322Z8.398
Y17.856Z8.31
Y14.551Z8.169
Y11.412Z8.01
Y7.993Z7.811
Y7.914Z7.826
Y7.844Z7.843
Y7.819
X331.27Y7.637
X331.373Y7.482
X331.528Y7.379
X331.71Y7.343
X333.297
X333.48Y7.379
X333.634Y7.482
X333.737Y7.637
X333.774Y7.819
Y7.889Z7.826
Y7.968Z7.811
Y11.41Z8.012
Y14.545Z8.17
Y17.859Z8.312
Y20.599Z8.408
Y23.317Z8.484
Y25.533Z8.531
Y27.22Z8.562
Y30.537Z8.598
Y35.22Z8.61
Y39.902Z8.594
Y43.158Z8.553
Y46.362Z8.489
Y49.08Z8.414
Y51.658Z8.324
Y53.038Z8.269
Y55.829Z8.145
Y59.002Z7.981
Y61.882Z7.811
Y61.961Z7.826
Y62.031Z7.843
Y62.056
X333.81Y62.239
X333.913Y62.393
X334.068Y62.496
X334.25Y62.533
X335.837
X336.02Y62.496
X336.174Y62.393
X336.277Y62.239
X336.313Y62.056
Y61.986Z7.826
Y61.907Z7.811
Y59.013Z7.982
Y55.843Z8.146
Y52.439Z8.296
Y49.351Z8.407
Y46.358Z8.49
Y43.158Z8.555
Y39.946Z8.595
Y35.069Z8.612
Y30.386Z8.599
Y27.07Z8.562
Y23.794Z8.498
Y20.704Z8.413
Y17.789Z8.311
Y14.557Z8.172
Y11.357Z8.011
Y7.943Z7.811
Y7.863Z7.826
Y7.794Z7.843
Y7.769
X336.35Y7.586
X336.453Y7.432
X336.607Y7.329
X336.79Y7.292
X338.377
X338.559Y7.329
X338.714Y7.432
X338.817Y7.586
X338.853Y7.769
Y7.838Z7.826
Y7.918Z7.811
Y11.355Z8.012
Y14.552Z8.174
Y17.781Z8.312
Y20.789Z8.417
Y23.783Z8.499
Y27.055Z8.563
Y30.372Z8.601
Y35.25Z8.613
Y39.932Z8.597
Y43.144Z8.557
Y46.341Z8.492
Y49.419Z8.406
Y52.56Z8.292
Y55.831Z8.149
Y59.056Z7.981
Y61.932Z7.811
Y62.011Z7.826
Y62.081Z7.843
Y62.106
X338.89Y62.288
X338.993Y62.443
X339.147Y62.546
X339.33Y62.582
X340.917
X341.099Y62.546
X341.254Y62.443
X341.357Y62.288
X341.393Y62.106
Y62.036Z7.826
Y61.957Z7.811
Y59.044Z7.983
Y55.88Z8.148
Y52.621Z8.291
Y49.492Z8.405
Y46.45Z8.491
Y43.139Z8.558
Y39.928Z8.598
Y35.245Z8.615
Y30.368Z8.602
Y27.051Z8.564
Y23.929Z8.504
Y20.889Z8.421
Y17.783Z8.313
Y14.489Z8.172
Y11.305Z8.011
Y7.893Z7.811
Y7.814Z7.826
Y7.744Z7.843
Y7.719
X341.429Y7.537
X341.533Y7.382
X341.687Y7.279
X341.869Y7.243
X343.457
X343.639Y7.279
X343.794Y7.382
X343.897Y7.537
X343.933Y7.719
Y7.789Z7.826
Y7.868Z7.811
Y11.302Z8.012
Y14.494Z8.174
Y17.718Z8.312
Y20.818Z8.42
Y23.948Z8.505
Y27.067Z8.566
Y30.383Z8.604
Y35.066Z8.616
Y39.943Z8.6
Y43.155Z8.56
Y46.326Z8.495
Y49.512Z8.405
Y52.674Z8.291
Y55.871Z8.15
Y59.085Z7.983
Y61.982Z7.811
Y62.062Z7.826
Y62.132Z7.843
Y62.157
X343.969Y62.339
X344.073Y62.493
X344.227Y62.597
X344.409Y62.633
X345.997
X346.179Y62.597
X346.333Y62.493
X346.437Y62.339
X346.473Y62.157
Y62.087Z7.826
Y62.007Z7.811
Y59.095Z7.984
Y55.871Z8.151
Y52.669Z8.292
Y49.493Z8.407
Y46.272Z8.498
Y43.19Z8.56
Y39.935Z8.601
Y35.252Z8.618
Y30.375Z8.605
Y27.058Z8.568
Y23.942Z8.507
Y20.822Z8.422
Y17.636Z8.31
Y14.481Z8.175
Y11.293Z8.013
Y7.843Z7.811
Y7.764Z7.826
Y7.694Z7.843
Y7.669
X346.509Y7.486
X346.612Y7.332
X346.767Y7.229
X346.949Y7.192
X348.537
X348.719Y7.229
X348.873Y7.332
X348.977Y7.486
X349.013Y7.669
Y7.739Z7.826
Y7.818Z7.811
Y11.241Z8.012
Y14.417Z8.174
Y17.636Z8.312
Y20.819Z8.423
Y23.936Z8.508
Y27.05Z8.569
Y30.366Z8.607
Y35.244Z8.619
Y39.926Z8.603
Y43.181Z8.562
Y46.26Z8.5
Y49.503Z8.408
Y52.676Z8.294
Y55.874Z8.153
Y59.146Z7.982
Y62.032Z7.811
Y62.033
Y62.112Z7.826
Y62.182Z7.843
Y62.207
X349.049Y62.389
X349.152Y62.544
X349.307Y62.647
X349.489Y62.683
X351.076
X351.259Y62.647
X351.413Y62.544
X351.516Y62.389
X351.553Y62.207
Y62.137Z7.826
Y62.058Z7.811
Y59.147Z7.984
Y55.929Z8.152
Y52.733Z8.293
Y49.48Z8.411
Y46.346Z8.499
Y43.164Z8.564
Y39.909Z8.605
Y35.226Z8.621
Y30.349Z8.608
Y27.032Z8.57
Y23.921Z8.509
Y20.807Z8.424
Y17.627Z8.313
Y14.411Z8.175
Y11.238Z8.013
Y7.793Z7.811
Y7.792
Y7.713Z7.826
Y7.643Z7.843
Y7.618
X351.589Y7.436
X351.692Y7.282
X351.847Y7.178
X352.029Y7.142
X353.616
X353.799Y7.178
X353.953Y7.282
X354.056Y7.436
X354.093Y7.618
Y7.688Z7.826
Y7.767Z7.811
Y11.242Z8.015
Y14.422Z8.177
Y17.554Z8.312
Y20.813Z8.426
Y23.925Z8.511
Y27.033Z8.572
Y30.349Z8.61
Y35.227Z8.622
Y39.909Z8.606
Y43.164Z8.566
Y46.343Z8.501
Y49.557Z8.41
Y52.724Z8.295
Y55.917Z8.154
Y59.183Z7.983
Y62.082Z7.811
Y62.083
Y62.162Z7.826
Y62.232Z7.843
Y62.257
X354.129Y62.439
X354.232Y62.594
X354.387Y62.697
X354.569Y62.733
X356.156
X356.338Y62.697
X356.493Y62.594
X356.596Y62.439
X356.632Y62.257
Y62.187Z7.826
Y62.108Z7.811
Y59.194Z7.984
Y55.981Z8.152
Y52.79Z8.294
Y49.558Z8.411
Y46.324Z8.503
Y43.148Z8.567
Y39.893Z8.608
Y35.21Z8.624
Y30.333Z8.611
Y27.016Z8.573
Y23.911Z8.512
Y20.802Z8.427
Y17.546Z8.313
Y14.35Z8.175
Y11.183Z8.014
Y7.742Z7.811
Y7.663Z7.826
Y7.593Z7.843
Y7.568
X356.669Y7.386
X356.772Y7.231
X356.926Y7.128
X357.109Y7.092
X358.696
X358.878Y7.128
X359.033Y7.231
X359.136Y7.386
X359.172Y7.568
Y7.638Z7.826
Y7.717Z7.811
Y11.179Z8.015
Y14.344Z8.177
Y17.552Z8.315
Y20.723Z8.427
Y23.934Z8.514
Y27.036Z8.575
Y30.353Z8.613
Y35.23Z8.625
Y39.913Z8.609
Y43.168Z8.569
Y46.342Z8.504
Y49.573Z8.412
Y52.802Z8.295
Y55.989Z8.153
Y59.25Z7.983
Y62.132Z7.811
Y62.212Z7.826
Y62.281Z7.843
Y62.306
X359.209Y62.489
X359.312Y62.643
X359.466Y62.746
X359.649Y62.783
X361.236
X361.418Y62.746
X361.573Y62.643
X361.676Y62.489
X361.712Y62.306
Y62.237Z7.826
Y62.157Z7.811
Y59.265Z7.983
Y56.006Z8.154
Y52.754Z8.298
Y49.595Z8.413
Y46.391Z8.504
Y43.219Z8.569
Y40.012Z8.61
Y35.33Z8.627
Y30.537Z8.615
Y27.025Z8.576
Y23.925Z8.515
Y20.717Z8.428
Y17.548Z8.316
Y14.343Z8.178
Y11.181Z8.017
Y7.693Z7.811
Y7.613Z7.826
Y7.544Z7.843
Y7.519
X361.748Y7.336
X361.852Y7.182
X362.006Y7.079
X362.188Y7.042
X363.776
X363.958Y7.079
X364.113Y7.182
X364.216Y7.336
X364.252Y7.519
Y7.588Z7.826
Y7.668Z7.811
Y11.122Z8.015
Y14.347Z8.18
Y17.55Z8.318
Y20.715Z8.429
Y23.921Z8.517
Y27.018Z8.578
Y30.53Z8.617
Y35.33Z8.628
Y40.012Z8.611
Y43.219Z8.571
Y46.387Z8.506
Y49.589Z8.415
Y52.812Z8.297
Y55.994Z8.156
Y59.257Z7.986
Y62.182Z7.811
Y62.183
Y62.262Z7.826
Y62.332Z7.843
Y62.357
X364.288Y62.539
X364.392Y62.694
X364.546Y62.797
X364.728Y62.833
X366.316
X366.498Y62.797
X366.652Y62.694
X366.756Y62.539
X366.792Y62.357
Y62.287Z7.826
Y62.208Z7.811
Y59.317Z7.984
Y56.007Z8.157
Y52.828Z8.298
Y49.607Z8.416
Y46.385Z8.507
Y43.219Z8.572
Y39.817Z8.615
Y35.33Z8.63
Y30.513Z8.619
Y27.001Z8.579
Y23.907Z8.518
Y20.704Z8.43
Y17.541Z8.319
Y14.341Z8.181
Y11.118Z8.016
Y7.642Z7.811
Y7.563Z7.826
Y7.493Z7.843
Y7.468
X366.828Y7.286
X366.931Y7.131
X367.086Y7.028
X367.268Y6.992
X368.856
X369.038Y7.028
X369.192Y7.131
X369.296Y7.286
X369.332Y7.468
Y7.538Z7.826
Y7.617Z7.811
Y11.066Z8.015
Y14.276Z8.18
Y17.458Z8.317
Y20.7Z8.432
Y23.901Z8.519
Y26.992Z8.58
Y30.699Z8.622
Y35.72Z8.631
Y39.817Z8.617
Y43.219Z8.574
Y46.381Z8.509
Y49.601Z8.417
Y52.834Z8.3
Y56.078Z8.155
Y59.328Z7.985
Y62.233Z7.811
Y62.312Z7.826
Y62.382Z7.843
Y62.407
X369.368Y62.59
X369.471Y62.744
X369.626Y62.847
X369.808Y62.884
X371.395
X371.578Y62.847
X371.732Y62.744
X371.835Y62.59
X371.872Y62.407
Y62.337Z7.826
Y62.258Z7.811
Y59.314Z7.987
Y56.066Z8.158
Y52.825Z8.302
Y49.595Z8.419
Y46.378Z8.511
Y43.219Z8.575
Y39.622Z8.62
Y35.525Z8.633
Y30.682Z8.623
Y26.975Z8.582
Y23.887Z8.521
Y20.689Z8.433
Y17.45Z8.319
Y14.27Z8.181
Y11.063Z8.016
Y7.592Z7.811
Y7.513Z7.826
Y7.443Z7.843
Y7.418
X371.908Y7.236
X372.011Y7.081
X372.166Y6.978
X372.348Y6.942
X373.935
X374.118Y6.978
X374.272Y7.081
X374.375Y7.236
X374.411Y7.418
Y7.488Z7.826
Y7.567Z7.811
Y11.011Z8.015
Y14.215Z8.18
Y17.473Z8.321
Y20.71Z8.435
Y23.799Z8.52
Y27.08Z8.584
Y30.591Z8.624
Y35.024Z8.635
Y39.321Z8.624
Y43.161Z8.578
Y46.36Z8.513
Y49.656Z8.419
Y52.884Z8.301
Y56.065Z8.159
Y59.357Z7.986
Y62.283Z7.811
Y62.362Z7.826
Y62.432Z7.843
Y62.457
X374.448Y62.639
X374.551Y62.794
X374.706Y62.897
X374.888Y62.933
X376.475
X376.657Y62.897
X376.812Y62.794
X376.915Y62.639
X376.951Y62.457
Y62.387Z7.826
Y62.308Z7.811
Y59.342Z7.988
Y56.098Z8.159
Y52.863Z8.303
Y49.638Z8.421
Y46.427Z8.512
Y42.993Z8.583
Y39.091Z8.627
Y34.752Z8.635
Y30.581Z8.626
Y27.07Z8.586
Y23.791Z8.522
Y20.599Z8.434
Y17.47Z8.322
Y14.215Z8.181
Y11.013Z8.017
Y7.542Z7.811
Y7.462Z7.826
Y7.393Z7.843
Y7.368
X376.988Y7.185
X377.091Y7.031
X377.245Y6.928
X377.428Y6.891
X379.015
X379.197Y6.928
X379.352Y7.031
X379.455Y7.185
X379.491Y7.368
Y7.437Z7.826
Y7.517Z7.811
Y11.025Z8.019
Y14.233Z8.184
Y17.405Z8.322
Y20.636Z8.436
Y23.825Z8.524
Y27.1Z8.588
Y30.515Z8.626
Y33.432Z8.625
Z7.811
Z7.81
Y33.468Z7.628
Y33.571Z7.473
Y33.725Z7.37
Y33.907Z7.333
Y35.941Z7.329
Y36.123Z7.365
Y36.278Z7.468
Y36.381Z7.622
Y36.418Z7.805
Z7.83
Y36.42Z8.626
Y39.929Z8.621
Y43.183Z8.581
Y46.377Z8.515
Y49.667Z8.421
Y52.889Z8.304
Y56.121Z8.159
Y59.363Z7.989
Y62.333Z7.811
Y62.412Z7.826
Y62.482Z7.843
Y62.507
X379.527Y62.69
X379.631Y62.844
X379.785Y62.947
X379.967Y62.984
X381.555
X381.737Y62.947
X381.892Y62.844
X381.995Y62.69
X382.031Y62.507
Y62.438Z7.826
Y62.358Z7.811
Y59.394Z7.989
Y56.155Z8.159
Y52.926Z8.304
Y49.707Z8.422
Y46.419Z8.516
Y43.228Z8.581
Y39.779Z8.625
Y36.487Z8.639
Y30.805Z8.63
Y27.098Z8.589
Y23.825Z8.525
Y20.639Z8.438
Y17.41Z8.323
Y14.227Z8.185
Y10.965Z8.017
Y7.492Z7.811
Y7.412Z7.826
Y7.342Z7.843
Y7.317
X382.067Y7.135
X382.171Y6.981
X382.325Y6.877
X382.507Y6.841
X384.095
X384.277Y6.877
X384.431Y6.981
X384.535Y7.135
X384.571Y7.317
Y7.387Z7.826
Y7.466Z7.811
Y7.467
Y10.962Z8.019
Y14.156Z8.183
Y17.403Z8.324
Y20.628Z8.439
Y23.812Z8.527
Y27.082Z8.59
Y30.594Z8.63
Y35.277Z8.641
Y39.569Z8.628
Y43.213Z8.583
Y46.402Z8.518
Y49.686Z8.424
Y52.902Z8.306
Y56.139Z8.162
Y59.432Z7.988
Y62.383Z7.811
Y62.462Z7.826
Y62.532Z7.843
Y62.557
X384.607Y62.74
X384.71Y62.894
X384.865Y62.997
X385.047Y63.034
X386.635
X386.817Y62.997
X386.971Y62.894
X387.075Y62.74
X387.111Y62.557
Y62.487Z7.826
Y62.408Z7.811
Y59.442Z7.989
Y56.208Z8.16
Y52.918Z8.307
Y49.704Z8.425
Y46.399Z8.519
Y43.213Z8.585
Y39.96Z8.626
Y35.472Z8.642
Y30.595Z8.632
Y27.083Z8.592
Y23.815Z8.528
Y20.635Z8.44
Y17.412Z8.326
Y14.168Z8.185
Y10.911Z8.017
Y7.442Z7.811
Y7.363Z7.826
Y7.293Z7.843
Y7.268
X387.147Y7.085
X387.25Y6.931
X387.405Y6.828
X387.587Y6.791
X389.174
X389.357Y6.828
X389.511Y6.931
X389.614Y7.085
X389.651Y7.268
Y7.338Z7.826
Y7.417Z7.811
Y10.908Z8.019
Y14.163Z8.187
Y17.323Z8.325
Y20.624Z8.442
Y23.802Z8.529
Y27.067Z8.593
Y30.384Z8.631
Y35.066Z8.644
Y39.943Z8.627
Y43.344Z8.584
Y46.485Z8.519
Y49.682Z8.427
Y52.975Z8.306
Y56.196Z8.162
Y59.483Z7.988
Y62.433Z7.811
Y62.513Z7.826
Y62.583Z7.843
Y62.608
X389.687Y62.79
X389.79Y62.945
X389.945Y63.048
X390.127Y63.084
X391.714
X391.897Y63.048
X392.051Y62.945
X392.154Y62.79
X392.191Y62.608
Y62.538Z7.826
Y62.458Z7.811
Y59.469Z7.991
Y56.24Z8.161
Y52.955Z8.309
Y49.747Z8.426
Y46.471Z8.521
Y43.186Z8.588
Y39.933Z8.629
Y35.251Z8.645
Y30.374Z8.633
Y27.057Z8.595
Y23.794Z8.531
Y20.619Z8.443
Y17.32Z8.326
Y14.096Z8.185
Y10.911Z8.021
Y7.392Z7.811
Y7.312Z7.826
Y7.242Z7.843
Y7.217
X392.227Y7.035
X392.33Y6.881
X392.485Y6.777
X392.667Y6.741
X394.254
X394.436Y6.777
X394.591Y6.881
X394.694Y7.035
X394.73Y7.217
Y7.287Z7.826
Y7.367Z7.811
Y10.853Z8.019
Y14.091Z8.186
Y17.313Z8.327
Y20.608Z8.444
Y23.781Z8.532
Y27.042Z8.596
Y30.554Z8.635
Y35.236Z8.647
Y39.918Z8.631
Y43.171Z8.59
Y46.453Z8.523
Y49.726Z8.429
Y52.998Z8.308
Y56.213Z8.165
Y59.496Z7.991
Y62.484Z7.811
Y62.563Z7.826
Y62.633Z7.843
Y62.658
X394.767Y62.84
X394.87Y62.995
X395.024Y63.098
X395.207Y63.134
X396.794
X396.976Y63.098
X397.131Y62.995
X397.234Y62.84
X397.27Y62.658
Y62.588Z7.826
Y62.509Z7.811
Y62.508
Y59.506Z7.992
Y56.275Z8.163
Y52.996Z8.31
Y49.712Z8.431
Y46.523Z8.522
Y43.243Z8.59
Y39.795Z8.634
Y35.113Z8.648
Y30.43Z8.637
Y26.919Z8.596
Y23.711Z8.532
Y20.541Z8.444
Y17.33Z8.329
Y14.096Z8.188
Y10.85Z8.02
Y7.341Z7.811
Y7.262Z7.826
Y7.192Z7.843
Y7.167
X397.307Y6.985
X397.41Y6.83
X397.564Y6.727
X397.747Y6.691
X399.334
X399.516Y6.727
X399.671Y6.83
X399.774Y6.985
X399.81Y7.167
Y7.237Z7.826
Y7.316Z7.811
Y10.794Z8.019
Y14.027Z8.187
Y17.324Z8.331
Y20.533Z8.445
Y23.7Z8.533
Y26.905Z8.597
Y30.612Z8.639
Y35.295Z8.65
Y39.782Z8.635
Y43.23Z8.592
Y46.506Z8.524
Y49.774Z8.43
Y53.04Z8.31
Y56.25Z8.166
Y59.576Z7.989
Y62.533Z7.811
Y62.534
Y62.613Z7.826
Y62.683Z7.843
Y62.708
X399.846Y62.89
X399.95Y63.045
X400.104Y63.148
X400.286Y63.184
X401.874
X402.056Y63.148
X402.211Y63.045
X402.314Y62.89
X402.35Y62.708
Y62.638Z7.826
Y62.559Z7.811
Y59.596Z7.99
Y56.265Z8.167
Y53.058Z8.311
Y49.78Z8.432
Y46.491Z8.526
Y43.218Z8.594
Y39.574Z8.639
Y35.282Z8.651
Y30.6Z8.641
Y26.893Z8.599
Y23.69Z8.535
Y20.526Z8.446
Y17.32Z8.332
Y14.026Z8.188
Y10.795Z8.021
Y7.291Z7.811
Y7.212Z7.826
Y7.142Z7.843
Y7.117
X402.386Y6.935
X402.49Y6.78
X402.644Y6.677
X402.826Y6.641
X404.414
X404.596Y6.677
X404.75Y6.78
X404.854Y6.935
X404.89Y7.117
Y7.187Z7.826
Y7.266Z7.811
Y7.267
Y10.744Z8.019
Y14.038Z8.19
Y17.248Z8.331
Y20.533Z8.448
Y23.694Z8.536
Y26.894Z8.6
Y30.601Z8.642
Y35.088Z8.653
Y39.38Z8.641
Y43.219Z8.595
Y46.49Z8.528
Y49.776Z8.433
Y53.051Z8.313
Y56.322Z8.165
Y59.588Z7.992
Y62.584Z7.811
Y62.663Z7.826
Y62.733Z7.843
Y62.758
X404.926Y62.94
X405.029Y63.095
X405.184Y63.198
X405.366Y63.234
X406.954
X407.136Y63.198
X407.29Y63.095
X407.394Y62.94
X407.43Y62.758
Y62.688Z7.826
Y62.609Z7.811
Y59.635Z7.991
Y56.309Z8.168
Y53.03Z8.315
Y49.758Z8.436
Y46.475Z8.53
Y42.985Z8.601
Y39.083Z8.645
Y34.762Z8.653
Y30.594Z8.644
Y26.887Z8.601
Y23.69Z8.538
Y20.531Z8.45
Y17.249Z8.332
Y14.027Z8.191
Y10.735Z8.02
Y7.242Z7.811
Y7.241
Y7.162Z7.826
Y7.092Z7.843
Y7.067
X407.466Y6.885
X407.569Y6.73
X407.724Y6.627
X407.906Y6.591
X409.493
X409.676Y6.627
X409.83Y6.73
X409.933Y6.885
X409.97Y7.067
Y7.137Z7.826
Y7.216Z7.811
Y10.732Z8.022
Y13.955Z8.189
Y17.24Z8.334
Y20.519Z8.451
Y23.676Z8.539
Y26.871Z8.603
Y30.383Z8.643
Y33.402
Z7.811
Y33.438Z7.628
Y33.541Z7.474
Y33.696Z7.371
Y33.878Z7.334
Y35.972
Y36.154Z7.371
Y36.309Z7.474
Y36.412Z7.628
Y36.448Z7.811
Y36.449Z8.643
Y39.96Z8.639
Y43.212Z8.599
Y46.52Z8.53
Y49.8Z8.436
Y53.07Z8.315
Y56.335Z8.168
Y59.659Z7.991
Y62.634Z7.811
Y62.713Z7.826
Y62.783Z7.843
Y62.808
X410.006Y62.99
X410.109Y63.145
X410.264Y63.248
X410.446Y63.284
X412.033
X412.216Y63.248
X412.37Y63.145
X412.473Y62.99
X412.51Y62.808
Y62.738Z7.826
Y62.659Z7.811
Y59.692Z7.991
Y56.378Z8.167
Y53.116Z8.315
Y49.848Z8.435
Y46.491Z8.533
Y43.332Z8.598
Y39.544Z8.645
Y35.642Z8.657
Y30.569Z8.647
Y26.862Z8.604
Y23.67Z8.54
Y20.516Z8.452
Y17.24Z8.335
Y13.957Z8.191
Y10.737Z8.024
Y7.191Z7.811
Y7.112Z7.826
Y7.042Z7.843
Y7.017
X412.546Y6.835
X412.649Y6.68
X412.804Y6.577
X412.986Y6.541
X414.573
X414.755Y6.577
X414.91Y6.68
X415.013Y6.835
X415.049Y7.017
Y7.087Z7.826
Y7.166Z7.811
Y10.678Z8.022
Y13.961Z8.193
Y17.241Z8.337
Y20.434Z8.451
Y23.689Z8.542
Y26.878Z8.606
Y30.585Z8.649
Y35.463Z8.659
Y39.365Z8.648
Y43.202Z8.602
Y46.505Z8.534
Y49.86Z8.437
Y53.125Z8.316
Y56.385Z8.169
Y59.702Z7.992
Y62.684Z7.811
Y62.764Z7.826
Y62.833Z7.843
Y62.859
X415.086Y63.041
X415.189Y63.195
X415.343Y63.299
X415.526Y63.335
X417.113
X417.295Y63.299
X417.45Y63.195
X417.553Y63.041
X417.589Y62.859
Y62.789Z7.826
Y62.709Z7.811
Y59.73Z7.992
Y56.422Z8.168
Y53.099Z8.318
Y49.837Z8.439
Y46.589Z8.533
Y43.331Z8.601
Y40.518Z8.637
Y38.958Z8.651
Y34.47Z8.66
Y30.568Z8.65
Y26.861Z8.607
Y23.675Z8.543
Y20.423Z8.452
Y17.153Z8.335
Y13.956Z8.194
Y10.675Z8.023
Y7.141Z7.811
Y7.061Z7.826
Y6.992Z7.843
Y6.967
X417.626Y6.784
X417.729Y6.63
X417.883Y6.527
X418.066Y6.49
X419.653
X419.835Y6.527
X419.99Y6.63
X420.093Y6.784
X420.129Y6.967
Y7.036Z7.826
Y7.116Z7.811
Y10.624Z8.022
Y13.891Z8.193
Y17.152Z8.336
Y20.419Z8.454
Y23.669Z8.545
Y26.852Z8.609
Y30.364Z8.649
Y33.681Z8.661
Y38.753Z8.654
Y40.509Z8.639
Y43.322Z8.603
Y46.577Z8.535
Y49.846Z8.44
Y53.171Z8.317
Y56.425Z8.17
Y59.738Z7.993
Y62.734Z7.811
Y62.813Z7.826
Y62.883Z7.843
Y62.908
X420.165Y63.091
X420.269Y63.245
X420.423Y63.348
X420.605Y63.385
X422.193
X422.375Y63.348
X422.53Y63.245
X422.633Y63.091
X422.669Y62.908
Y62.838Z7.826
Y62.759Z7.811
Y59.791Z7.992
Y56.432Z8.171
Y53.18Z8.318
Y49.858Z8.441
Y46.591Z8.536
Y43.338Z8.604
Y40.332Z8.642
Y38.771Z8.655
Y33.894Z8.663
Y30.382Z8.651
Y26.87Z8.61
Y23.704Z8.547
Y20.365Z8.454
Y17.131Z8.337
Y13.88Z8.194
Y10.621Z8.024
Y7.091Z7.811
Y7.011Z7.826
Y6.941Z7.843
Y6.916
X422.705Y6.734
X422.809Y6.58
X422.963Y6.476
X423.145Y6.44
X424.733
X424.915Y6.476
X425.069Y6.58
X425.173Y6.734
X425.209Y6.916
Y6.986Z7.826
Y7.066Z7.811
Y10.565Z8.022
Y13.887Z8.195
Y17.156Z8.339
Y20.411Z8.457
Y23.645Z8.547
Y27.003Z8.613
Y30.515Z8.653
Y34.222Z8.665
Y38.904Z8.656
Y40.66Z8.64
Y43.326Z8.606
Y46.576Z8.538
Y49.84Z8.444
Y53.174Z8.32
Y56.433Z8.173
Y59.79Z7.993
Y62.784Z7.811
Y62.864Z7.826
Y62.933Z7.843
Y62.959
X425.245Y63.141
X425.348Y63.295
X425.503Y63.399
X425.685Y63.435
X427.272
X427.455Y63.399
X427.609Y63.295
X427.712Y63.141
X427.749Y62.959
Y62.889Z7.826
Y62.809Z7.811
Y59.817Z7.993
Y56.463Z8.173
Y53.216Z8.32
Y49.899Z8.443
Y46.558Z8.54
Y43.456Z8.604
Y41.035Z8.637
Y38.986Z8.657
Y34.402Z8.666
Y30.5Z8.655
Y26.988Z8.615
Y23.632Z8.548
Y20.39Z8.458
Y17.141Z8.34
Y13.815Z8.194
Y10.562Z8.023
Y7.041Z7.811
Y6.962Z7.826
Y6.892Z7.843
Y6.867
X427.785Y6.684
X427.888Y6.53
X428.043Y6.427
X428.225Y6.39
X429.812
X429.995Y6.427
X430.149Y6.53
X430.252Y6.684
X430.289Y6.867
Y6.937Z7.826
Y7.016Z7.811
Y10.559Z8.025
Y13.81Z8.195
Y17.133Z8.342
Y20.382Z8.459
Y23.61Z8.549
Y26.978Z8.616
Y30.49Z8.657
Y34.587Z8.668
Y39.074Z8.659
Y42.001Z8.627
Y43.591Z8.603
Y46.587Z8.541
Y49.926Z8.444
Y53.174Z8.323
Y56.484Z8.173
Y59.835Z7.994
Y62.834Z7.811
Y62.914Z7.826
Y62.984Z7.843
Y63.009
X430.325Y63.191
X430.428Y63.346
X430.583Y63.449
X430.765Y63.485
X432.352
X432.534Y63.449
X432.689Y63.346
X432.792Y63.191
X432.828Y63.009
Y62.939Z7.826
Y62.859Z7.811
Y59.846Z7.995
Y56.496Z8.174
Y53.245Z8.322
Y49.933Z8.445
Y46.597Z8.542
Y42.989Z8.616
Y39.087Z8.66
Y34.466Z8.67
Y30.466Z8.658
Y26.954Z8.617
Y23.604Z8.551
Y20.378Z8.46
Y17.051Z8.34
Y13.812Z8.197
Y10.508Z8.024
Y6.991Z7.811
Y6.911Z7.826
Y6.841Z7.843
Y6.816
X432.865Y6.634
X432.968Y6.48
X433.122Y6.376
X433.305Y6.34
X434.892
X435.074Y6.376
X435.229Y6.48
X435.332Y6.634
X435.368Y6.816
Y6.886Z7.826
Y6.966Z7.811
Y10.505Z8.025
Y13.816Z8.198
Y17.053Z8.342
Y20.377Z8.462
Y23.6Z8.552
Y26.948Z8.619
Y30.655Z8.661
Y36.728Z8.669
Y39.85Z8.656
Y43.442Z8.609
Y46.577Z8.544
Y49.934Z8.447
Y53.257Z8.323
Y56.562Z8.172
Y59.851Z7.996
Y62.885Z7.811
Y62.964Z7.826
Y63.034Z7.843
Y63.059
X435.405Y63.241
X435.508Y63.396
X435.662Y63.499
X435.845Y63.535
X437.432
X437.614Y63.499
X437.769Y63.396
X437.872Y63.241
X437.908Y63.059
Y62.989Z7.826
Y62.91Z7.811
Y62.908
Y59.87Z7.997
Y56.524Z8.176
Y53.277Z8.323
Y49.971Z8.447
Y46.641Z8.544
Y43.404Z8.612
Y39.617Z8.66
Y36.448Z8.661
Y36.447Z7.811
Z7.805
Y36.41Z7.623
Y36.306Z7.469
Y36.152Z7.366
Y35.969Z7.33
Y33.879Z7.333
Y33.697Z7.37
Y33.543Z7.473
Y33.44Z7.628
Y33.404Z7.81
Z7.811
Z8.661
Y30.54
Y26.931Z8.62
Y23.57Z8.553
Y20.39Z8.464
Y17.089Z8.345
Y13.768Z8.198
Y10.464Z8.024
Y6.941Z7.811
Y6.94
Y6.861Z7.826
Y6.791Z7.843
Y6.766
X437.944Y6.584
X438.048Y6.429
X438.202Y6.326
X438.384Y6.29
X439.972
X440.154Y6.326
X440.309Y6.429
X440.412Y6.584
X440.448Y6.766
Y6.836Z7.826
Y6.915Z7.811
Y10.453Z8.025
Y13.754Z8.199
Y17.073Z8.346
Y20.32Z8.463
Y23.548Z8.554
Y26.906Z8.621
Y30.613Z8.664
Y35.295Z8.674
Y39.588Z8.662
Y43.373Z8.614
Y46.606Z8.546
Y49.958Z8.449
Y53.276Z8.325
Y56.575Z8.175
Y59.87Z7.998
Y62.934Z7.811
Y62.935
Y63.014Z7.826
Y63.084Z7.843
Y63.109
X440.484Y63.292
X440.588Y63.446
X440.742Y63.549
X440.924Y63.586
X442.512
X442.694Y63.549
X442.848Y63.446
X442.952Y63.292
X442.988Y63.109
Y63.039Z7.826
Y62.96Z7.811
Y59.927Z7.997
Y56.586Z8.176
Y53.29Z8.326
Y49.974Z8.45
Y46.649Z8.547
Y43.418Z8.615
Y39.777Z8.661
Y35.485Z8.676
Y30.607Z8.665
Y26.901Z8.623
Y23.545Z8.556
Y20.319Z8.465
Y16.996Z8.344
Y13.759Z8.2
Y10.45Z8.027
Y6.89Z7.811
Y6.811Z7.826
Y6.741Z7.843
Y6.716
X443.024Y6.533
X443.127Y6.379
X443.282Y6.276
X443.464Y6.239
X445.052
X445.234Y6.276
X445.388Y6.379
X445.492Y6.533
X445.528Y6.716
Y6.786Z7.826
Y6.865Z7.811
Y10.4Z8.026
Y13.696Z8.199
Y16.995Z8.346
Y20.317Z8.466
Y23.54Z8.557
Y26.892Z8.624
Y30.599Z8.667
Y35.477Z8.677
Y39.769Z8.663
Y43.41Z8.616
Y46.638Z8.549
Y49.984Z8.451
Y53.296Z8.327
Y56.59Z8.178
Y59.928Z7.998
Y62.984Z7.811
Y63.064Z7.826
Y63.134Z7.843
Y63.159
X445.564Y63.341
X445.667Y63.496
X445.822Y63.599
X446.004Y63.635
X447.591
X447.774Y63.599
X447.928Y63.495
X448.031Y63.341
X448.068Y63.159
Y63.089Z7.826
Y63.009Z7.811
Y59.932Z8
Y56.645Z8.176
Y53.288Z8.329
Y49.978Z8.453
Y46.635Z8.55
Y43.409Z8.618
Y39.768Z8.665
Y35.086Z8.679
Y30.403Z8.667
Y26.891Z8.626
Y23.541Z8.559
Y20.321Z8.468
Y17.002Z8.347
Y13.691Z8.2
Y10.397Z8.027
Y6.841Z7.811
Y6.761Z7.826
Y6.691Z7.843
Y6.666
X448.104Y6.484
X448.207Y6.329
X448.362Y6.226
X448.544Y6.19
X450.131
X450.314Y6.226
X450.468Y6.329
X450.571Y6.484
X450.608Y6.666
Y6.736Z7.826
Y6.816Z7.811
Y10.347Z8.026
Y13.703Z8.202
Y17.011Z8.349
Y20.225Z8.466
Y23.545Z8.56
Y26.893Z8.627
Y30.405Z8.667
Y35.087Z8.68
Y39.965Z8.664
Y43.411Z8.619
Y46.676Z8.551
Y50.016Z8.453
Y53.324Z8.329
Y56.622Z8.179
Y59.955Z8
Y63.035Z7.811
Y63.115Z7.826
Y63.184Z7.843
Y63.21
X450.644Y63.392
X450.747Y63.546
X450.902Y63.65
X451.084Y63.686
X452.671
X452.853Y63.65
X453.008Y63.546
X453.111Y63.392
X453.147Y63.21
Y63.14Z7.826
Y63.06Z7.811
Y63.059
Y59.986Z8
Y56.655Z8.179
Y53.369Z8.329
Y50Z8.455
Y46.662Z8.553
Y43.399Z8.621
Y39.954Z8.665
Y35.076Z8.682
Y30.199Z8.668
Y26.882Z8.628
Y23.537Z8.561
Y20.219Z8.468
Y16.928Z8.348
Y13.637Z8.201
Y10.348Z8.027
Y6.79Z7.811
Y6.711Z7.826
Y6.641Z7.843
Y6.616
X453.184Y6.434
X453.287Y6.279
X453.441Y6.176
X453.624Y6.14
X455.211
X455.393Y6.176
X455.548Y6.279
X455.651Y6.434
X455.687Y6.616
Y6.686Z7.826
Y6.765Z7.811
Y10.346Z8.029
Y13.632Z8.202
Y16.92Z8.349
Y20.231Z8.47
Y23.546Z8.563
Y26.889Z8.63
Y30.206Z8.669
Y35.083Z8.683
Y39.961Z8.667
Y43.406Z8.622
Y46.666Z8.554
Y50.001Z8.457
Y53.368Z8.331
Y56.662Z8.18
Y60.046Z7.998
Y63.084Z7.811
Y63.164Z7.826
Y63.234Z7.843
Y63.259
X455.724Y63.441
X455.827Y63.595
X455.981Y63.699
X456.164Y63.735
X457.751
X457.933Y63.699
X458.088Y63.595
X458.191Y63.441
X458.227Y63.259
Y63.189Z7.826
Y63.109Z7.811
Y60.064Z7.998
Y56.682Z8.181
Y53.391Z8.331
Y50.012Z8.458
Y46.68Z8.555
Y43.423Z8.624
Y39.977Z8.668
Y35.1Z8.685
Y30.222Z8.671
Y26.906Z8.632
Y23.565Z8.565
Y20.252Z8.472
Y16.944Z8.351
Y13.643Z8.204
Y10.295Z8.028
Y6.74Z7.811
Y6.66Z7.826
Y6.591Z7.843
Y6.566
X458.263Y6.383
X458.367Y6.229
X458.521Y6.126
X458.703Y6.089
X460.291
X460.473Y6.126
X460.628Y6.229
X460.731Y6.383
X460.767Y6.566
Y6.635Z7.826
Y6.715Z7.811
Y10.288Z8.029
Y13.634Z8.205
Y16.931Z8.352
Y20.237Z8.473
Y23.547Z8.566
Y26.885Z8.633
Y30.202Z8.672
Y35.079Z8.686
Y39.957Z8.67
Y43.402Z8.626
Y46.656Z8.558
Y50.065Z8.458
Y53.362Z8.334
Y56.705Z8.181
Y60.084Z7.999
Y63.135Z7.811
Y63.215Z7.826
Y63.285Z7.843
Y63.31
X460.803Y63.492
X460.907Y63.647
X461.061Y63.75
X461.243Y63.786
X462.831
X463.013Y63.75
X463.167Y63.647
X463.271Y63.492
X463.307Y63.31
Y63.24Z7.826
Y63.16Z7.811
Y60.086Z8
Y56.71Z8.183
Y53.435Z8.333
Y50.075Z8.459
Y46.748Z8.557
Y43.394Z8.627
Y39.949Z8.672
Y34.876Z8.688
Y30.194Z8.674
Y26.877Z8.634
Y23.541Z8.568
Y20.234Z8.474
Y16.931Z8.354
Y13.571Z8.204
Y10.238Z8.028
Y6.69Z7.811
Y6.61Z7.826
Y6.54Z7.843
Y6.515
X463.343Y6.333
X463.446Y6.178
X463.601Y6.075
X463.783Y6.039
X465.371
X465.553Y6.075
X465.707Y6.178
X465.811Y6.333
X465.847Y6.515
Y6.585Z7.826
Y6.665Z7.811
Y10.235Z8.029
Y13.566Z8.205
Y16.844Z8.352
Y20.223Z8.475
Y23.528Z8.569
Y26.861Z8.636
Y30.177Z8.675
Y35.055Z8.689
Y40.128Z8.671
Y43.521Z8.626
Y46.729Z8.559
Y50.054Z8.461
Y53.425Z8.335
Y56.763Z8.182
Y60.131Z7.999
Y63.185Z7.811
Y63.265Z7.826
Y63.335Z7.843
Y63.36
X465.883Y63.542
X465.986Y63.696
X466.141Y63.8
X466.323Y63.836
X467.91
X468.093Y63.8
X468.247Y63.696
X468.35Y63.542
X468.387Y63.36
Y63.29Z7.826
Y63.21Z7.811
Y60.17Z7.999
Y56.751Z8.184
Y53.405Z8.337
Y50.116Z8.461
Y46.715Z8.561
Y43.51Z8.628
Y40.117Z8.673
Y35.044Z8.691
Y30.167Z8.677
Y26.85Z8.637
Y23.519Z8.57
Y20.217Z8.477
Y16.84Z8.354
Y13.564Z8.207
Y10.227Z8.03
Y6.64Z7.811
Y6.561Z7.826
Y6.491Z7.843
Y6.466
X468.423Y6.283
X468.526Y6.129
X468.681Y6.026
X468.863Y5.989
X470.45
X470.633Y6.026
X470.787Y6.129
X470.89Y6.283
X470.927Y6.466
Y6.536Z7.826
Y6.615Z7.811
Y10.177Z8.029
Y13.502Z8.205
Y16.854Z8.356
Y20.126Z8.476
Y23.528Z8.572
Y26.856Z8.639
Y30.172Z8.678
Y35.05Z8.692
Y40.122Z8.674
Y43.515Z8.63
Y46.718Z8.562
Y50.116Z8.462
Y53.467Z8.336
Y56.8Z8.183
Y60.169Z8
Y63.235Z7.811
Y63.315Z7.826
Y63.385Z7.843
Y63.41
X470.963Y63.592
X471.066Y63.747
X471.221Y63.85
X471.403Y63.886
X472.99
X473.172Y63.85
X473.327Y63.747
X473.43Y63.592
X473.466Y63.41
Y63.34Z7.826
Y63.26Z7.811
Y63.259
Y60.181Z8.001
Y56.815Z8.184
Y53.485Z8.337
Y50.137Z8.463
Y46.741Z8.563
Y43.357Z8.634
Y40.107Z8.676
Y35.034Z8.694
Y30.157Z8.68
Y26.84Z8.64
Y23.515Z8.573
Y20.116Z8.477
Y16.846Z8.357
Y13.496Z8.207
Y10.174Z8.03
Y6.59Z7.811
Y6.51Z7.826
Y6.44Z7.843
Y6.415
X473.503Y6.233
X473.606Y6.079
X473.76Y5.975
X473.943Y5.939
X475.53
X475.712Y5.975
X475.867Y6.079
X475.97Y6.233
X476.006Y6.415
Y6.485Z7.826
Y6.565Z7.811
Y10.124Z8.029
Y13.508Z8.209
Y16.855Z8.359
Y20.145Z8.479
Y23.44Z8.573
Y26.71Z8.64
Y30.222Z8.681
Y35.099Z8.695
Y39.977Z8.679
Y43.421Z8.635
Y46.762Z8.564
Y50.156Z8.464
Y53.501Z8.338
Y56.829Z8.185
Y60.241Z7.999
Y63.286Z7.811
Y63.365Z7.826
Y63.435Z7.843
Y63.46
X476.043Y63.642
X476.146Y63.797
X476.3Y63.9
X476.483Y63.936
X478.07
X478.252Y63.9
X478.407Y63.797
X478.51Y63.642
X478.546Y63.46
Y63.39Z7.826
Y63.311Z7.811
Y63.31
Y60.243Z8.001
Y56.827Z8.186
Y53.492Z8.34
Y50.134Z8.466
Y46.744Z8.566
Y43.548Z8.633
Y40.156Z8.678
Y35.083Z8.697
Y30.206Z8.683
Y26.694Z8.641
Y23.426Z8.574
Y20.135Z8.48
Y16.768Z8.357
Y13.439Z8.207
Y10.121Z8.031
Y6.54Z7.811
Y6.46Z7.826
Y6.39Z7.843
Y6.365
X478.582Y6.183
X478.686Y6.028
X478.84Y5.925
X479.022Y5.889
X480.61
X480.792Y5.925
X480.947Y6.028
X481.05Y6.183
X481.086Y6.365
Y6.435Z7.826
Y6.515Z7.811
Y10.114Z8.032
Y13.428Z8.208
Y16.756Z8.358
Y20.12Z8.481
Y23.409Z8.575
Y26.869Z8.645
Y30.186Z8.684
Y34.868Z8.698
Y39.941Z8.682
Y43.385Z8.638
Y46.762Z8.567
Y50.15Z8.467
Y53.505Z8.341
Y56.892Z8.185
Y60.244Z8.002
Y63.335Z7.811
Y63.415Z7.826
Y63.485Z7.843
Y63.51
X481.122Y63.692
X481.225Y63.847
X481.38Y63.95
X481.562Y63.986
X483.15
X483.332Y63.95
X483.486Y63.847
X483.59Y63.692
X483.626Y63.51
Y63.44Z7.826
Y63.361Z7.811
Y63.36
Y60.219Z8.006
Y56.866Z8.188
Y53.543Z8.341
Y50.134Z8.47
Y46.839Z8.567
Y43.379Z8.64
Y40.129Z8.682
Y35.056Z8.7
Y30.179Z8.686
Y26.862Z8.646
Y23.404Z8.577
Y20.117Z8.483
Y16.755Z8.359
Y13.43Z8.21
Y10.117Z8.034
Y6.489Z7.811
Y6.41Z7.826
Y6.34Z7.843
Y6.315
X483.662Y6.132
X483.765Y5.978
X483.92Y5.875
X484.102Y5.839
X485.689
X485.872Y5.875
X486.026Y5.978
X486.129Y6.132
X486.166Y6.315
Y6.385Z7.826
Y6.464Z7.811
Y10.06Z8.032
Y13.435Z8.212
Y16.772Z8.362
Y20.131Z8.485
Y23.417Z8.579
Y26.68Z8.645
Y30.191Z8.687
Y35.069Z8.701
Y40.141Z8.683
Y43.391Z8.641
Y46.847Z8.568
Y50.218Z8.468
Y53.559Z8.342
Y56.934Z8.186
Y60.277Z8.004
Y63.385Z7.811
Y63.465Z7.826
Y63.535Z7.843
Y63.56
X486.202Y63.742
X486.305Y63.897
X486.46Y64
X486.642Y64.036
X488.229
X488.412Y64
X488.566Y63.897
X488.669Y63.742
X488.706Y63.56
Y63.49Z7.826
Y63.41Z7.811
Y60.303Z8.004
Y56.963Z8.186
Y53.537Z8.344
Y50.198Z8.47
Y46.831Z8.57
Y43.522Z8.64
Y40.129Z8.685
Y35.057Z8.703
Y30.179Z8.689
Y26.862Z8.649
Y23.406Z8.58
Y20.122Z8.486
Y16.764Z8.363
Y13.365Z8.21
Y10.057Z8.033
Y6.44Z7.811
Y6.36Z7.826
Y6.29Z7.843
Y6.265
X488.742Y6.083
X488.845Y5.928
X489Y5.825
X489.182Y5.789
X490.769
X490.951Y5.825
X491.106Y5.928
X491.209Y6.083
X491.245Y6.265
Y6.335Z7.826
Y6.415Z7.811
Y10.007Z8.032
Y13.367Z8.212
Y16.764Z8.364
Y20.12Z8.487
Y23.403Z8.581
Y26.858Z8.651
Y30.175Z8.69
Y35.053Z8.704
Y40.125Z8.686
Y43.518Z8.642
Y46.822Z8.572
Y50.208Z8.472
Y53.608Z8.343
Y56.976Z8.187
Y60.314Z8.005
Y63.435Z7.811
Y63.515Z7.826
Y63.585Z7.843
Y63.61
X491.282Y63.792
X491.385Y63.947
X491.539Y64.05
X491.722Y64.086
X493.309
X493.491Y64.05
X493.646Y63.947
X493.749Y63.792
X493.785Y63.61
Y63.54Z7.826
Y63.461Z7.811
Y60.324Z8.006
Y56.981Z8.188
Y53.616Z8.344
Y50.219Z8.473
Y46.858Z8.572
Y43.558Z8.643
Y40.114Z8.688
Y35.041Z8.706
Y30.163Z8.692
Y26.847Z8.652
Y23.392Z8.583
Y20.111Z8.489
Y16.678Z8.363
Y13.362Z8.213
Y10.005Z8.034
Y6.39Z7.811
Y6.389
Y6.31Z7.826
Y6.24Z7.843
Y6.215
X493.822Y6.033
X493.925Y5.878
X494.079Y5.775
X494.262Y5.739
X495.849
X496.031Y5.775
X496.186Y5.878
X496.289Y6.033
X496.325Y6.215
Y6.285Z7.826
Y6.364Z7.811
Y9.959Z8.033
Y13.314Z8.212
Y16.707Z8.365
Y20.059Z8.489
Y23.44Z8.585
Y26.699Z8.652
Y30.21Z8.693
Y34.995Z8.707
Y39.927Z8.692
Y43.567Z8.644
Y46.863Z8.574
Y50.242Z8.474
Y53.635Z8.345
Y56.997Z8.189
Y60.384Z8.004
Y63.486Z7.811
Y63.566Z7.826
Y63.635Z7.843
X496.361Y63.818
X496.465Y63.972
X496.619Y64.075
X496.801Y64.112
X498.389
X498.571Y64.075
X498.726Y63.972
X498.829Y63.818
X498.865Y63.635
Y63.187
Y63.117Z7.826
Y63.037Z7.811
Y60.15Z7.991
Y56.795Z8.176
Y53.412Z8.335
Y50.016Z8.466
Y46.657Z8.567
Y43.287Z8.641
Y39.853Z8.688
Y35.271Z8.707
Y30.784Z8.695
Y27.467Z8.656
Y24.173Z8.591
Y20.793Z8.497
Y17.386Z8.374
Y14.023Z8.224
Y10.662Z8.047
Y6.813Z7.811
Y6.686Z7.829
Y6.576Z7.896
Y6.502Z8.001
Y6.476Z8.127
Z15.875
X13.75Y11.411
Z7.112
Y11.437Z6.986
Y11.51Z6.882
Y11.619Z6.814
Y11.745Z6.795
Y15.143Z6.965
Y17.95Z7.085
Y20.759Z7.186
Y23.522Z7.267
Y26.247Z7.328
Y29.067Z7.372
Y31.993Z7.396
Y36.286Z7.402
Y39.505Z7.385
Y42.309Z7.35
Y44.887Z7.301
Y47.66Z7.23
Y50.435Z7.14
Y53.205Z7.032
Y56.013Z6.902
Y58.106Z6.795
Y58.184Z6.81
Y58.254Z6.827
Y58.898
X13.786Y59.08
X13.89Y59.235
X14.044Y59.338
X14.226Y59.374
X15.814
X15.996Y59.338
X16.151Y59.235
X16.254Y59.08
X16.29Y58.898
Y58.828Z6.81
Y58.75Z6.795
Y58.749
Y56.296Z6.921
Y53.502Z7.047
Y50.746Z7.153
Y47.961Z7.241
Y45.107Z7.312
Y42.59Z7.357
Y39.728Z7.39
Y36.497Z7.404
Y31.144Z7.396
Y28.022Z7.368
Y25.249Z7.322
Y22.502Z7.258
Y19.775Z7.176
Y16.99Z7.074
Y14.167Z6.95
Y11.1Z6.795
Y11.022Z6.811
Y10.952Z6.827
Y10.927
X16.326Y10.745
X16.43Y10.59
X16.584Y10.487
X16.766Y10.451
X18.354
X18.536Y10.487
X18.69Y10.59
X18.794Y10.745
X18.83Y10.927
Y10.997Z6.811
Y11.075Z6.795
Y14.227Z6.954
Y16.982Z7.075
Y19.763Z7.177
Y22.485Z7.259
Y25.23Z7.324
Y28Z7.369
Y30.927Z7.397
Y36.195Z7.406
Y39.706Z7.391
Y42.565Z7.359
Y45.08Z7.314
Y47.928Z7.244
Y50.728Z7.155
Y53.481Z7.05
Y56.281Z6.923
Y58.775Z6.795
Y58.853Z6.811
Y58.922Z6.827
Y58.948
X18.866Y59.13
X18.969Y59.284
X19.124Y59.388
X19.306Y59.424
X20.894
X21.076Y59.388
X21.23Y59.284
X21.334Y59.13
X21.37Y58.948
Y58.878Z6.811
Y58.8Z6.795
Y58.799
Y56.345Z6.921
Y53.491Z7.051
Y50.73Z7.157
Y47.934Z7.245
Y45.182Z7.313
Y42.548Z7.36
Y39.689Z7.393
Y36.177Z7.407
Y30.91Z7.398
Y27.983Z7.371
Y25.219Z7.325
Y22.479Z7.261
Y19.759Z7.179
Y16.982Z7.076
Y14.166Z6.953
Y11.05Z6.795
Y10.972Z6.81
Y10.902Z6.827
Y10.877
X21.406Y10.695
X21.509Y10.54
X21.664Y10.437
X21.846Y10.401
X23.433
X23.616Y10.437
X23.77Y10.54
X23.873Y10.695
X23.91Y10.877
Y10.947Z6.81
Y11.025Z6.795
Y14.163Z6.954
Y16.909Z7.075
Y19.682Z7.178
Y22.493Z7.262
Y25.229Z7.326
Y27.99Z7.372
Y30.917Z7.4
Y36.184Z7.409
Y39.696Z7.395
Y42.555Z7.362
Y45.184Z7.315
Y47.933Z7.247
Y50.725Z7.158
Y53.549Z7.05
Y56.39Z6.92
Y58.825Z6.795
Y58.903Z6.81
Y58.973Z6.827
Y58.998
X23.946Y59.18
X24.049Y59.335
X24.204Y59.438
X24.386Y59.474
X25.973
X26.156Y59.438
X26.31Y59.335
X26.413Y59.18
X26.45Y58.998
Y58.928Z6.81
Y58.85Z6.795
Y56.415Z6.92
Y53.576Z7.05
Y50.756Z7.159
Y47.967Z7.247
Y45.128Z7.317
Y42.451Z7.365
Y39.788Z7.395
Y36.483Z7.41
Y31.008Z7.402
Y28.082Z7.375
Y25.155Z7.327
Y22.423Z7.262
Y19.711Z7.18
Y16.941Z7.077
Y14.133Z6.954
Y11Z6.795
Y10.922Z6.811
Y10.852Z6.827
Y10.827
X26.486Y10.645
X26.589Y10.491
X26.744Y10.387
X26.926Y10.351
X28.513
X28.695Y10.387
X28.85Y10.491
X28.953Y10.645
X28.989Y10.827
Y10.897Z6.811
Y10.975Z6.795
Y14.065Z6.952
Y16.868Z7.076
Y19.633Z7.179
Y22.434Z7.264
Y25.163Z7.328
Y27.891Z7.374
Y31.012Z7.403
Y36.475Z7.411
Y39.792Z7.397
Y42.455Z7.367
Y45.13Z7.319
Y47.966Z7.249
Y50.751Z7.16
Y53.568Z7.052
Y56.411Z6.922
Y58.875Z6.795
Y58.953Z6.811
Y59.023Z6.827
Y59.048
X29.026Y59.23
X29.129Y59.385
X29.283Y59.488
X29.466Y59.524
X31.053
X31.235Y59.488
X31.39Y59.385
X31.493Y59.23
X31.529Y59.048
Y58.978Z6.811
Y58.9Z6.795
Y56.454Z6.921
Y53.623Z7.051
Y50.823Z7.159
Y47.963Z7.25
Y45.225Z7.318
Y42.433Z7.368
Y39.77Z7.398
Y36.063Z7.413
Y30.99Z7.405
Y28.064Z7.377
Y25.144Z7.329
Y22.42Z7.265
Y19.622Z7.18
Y16.861Z7.077
Y14.061Z6.954
Y10.95Z6.795
Y10.872Z6.811
Y10.802Z6.827
Y10.777
X31.566Y10.595
X31.669Y10.44
X31.823Y10.337
X32.006Y10.301
X33.593
X33.775Y10.337
X33.93Y10.44
X34.033Y10.595
X34.069Y10.777
Y10.847Z6.811
Y10.925Z6.795
Y14.065Z6.955
Y16.862Z7.079
Y19.62Z7.181
Y22.415Z7.266
Y25.135Z7.331
Y28.049Z7.379
Y30.975Z7.406
Y36.048Z7.415
Y39.755Z7.4
Y42.613Z7.367
Y45.233Z7.319
Y47.968Z7.252
Y50.824Z7.161
Y53.633Z7.052
Y56.47Z6.922
Y58.925Z6.795
Y59.004Z6.81
Y59.073Z6.827
Y59.098
X34.105Y59.281
X34.209Y59.435
X34.363Y59.538
X34.545Y59.575
X36.133
X36.315Y59.538
X36.47Y59.435
X36.573Y59.281
X36.609Y59.098
Y59.029Z6.81
Y58.951Z6.795
Y56.504Z6.922
Y53.615Z7.054
Y50.809Z7.163
Y48.034Z7.251
Y45.207Z7.322
Y42.592Z7.369
Y39.733Z7.402
Y36.026Z7.416
Y30.954Z7.408
Y28.027Z7.38
Y25.117Z7.332
Y22.401Z7.267
Y19.611Z7.182
Y16.779Z7.077
Y13.998Z6.953
Y10.9Z6.795
Y10.822Z6.811
Y10.752Z6.827
Y10.727
X36.645Y10.544
X36.748Y10.39
X36.903Y10.287
X37.085Y10.25
X38.673
X38.855Y10.287
X39.009Y10.39
X39.113Y10.544
X39.149Y10.727
Y10.797Z6.811
Y10.875Z6.795
Y13.994Z6.955
Y16.771Z7.078
Y19.599Z7.184
Y22.386Z7.268
Y25.098Z7.333
Y28.002Z7.381
Y30.929Z7.409
Y36.196Z7.418
Y39.708Z7.403
Y42.397Z7.374
Y45.18Z7.324
Y48.032Z7.253
Y50.88Z7.162
Y53.683Z7.052
Y56.513Z6.923
Y58.976Z6.795
Y59.054Z6.81
Y59.124Z6.827
Y59.149
X39.185Y59.331
X39.288Y59.485
X39.443Y59.589
X39.625Y59.625
X41.212
X41.395Y59.589
X41.549Y59.485
X41.652Y59.331
X41.689Y59.149
Y59.079Z6.81
Y59.001Z6.795
Y56.541Z6.923
Y53.665Z7.055
Y50.866Z7.164
Y48.02Z7.255
Y45.293Z7.323
Y42.393Z7.375
Y39.704Z7.405
Y36.193Z7.419
Y30.925Z7.41
Y27.998Z7.383
Y25.097Z7.334
Y22.39Z7.27
Y19.607Z7.185
Y16.783Z7.08
Y13.933Z6.953
Y10.849Z6.795
Y10.771Z6.81
Y10.701Z6.827
Y10.676
X41.725Y10.494
X41.828Y10.34
X41.983Y10.236
X42.165Y10.2
X43.752
X43.935Y10.236
X44.089Y10.34
X44.192Y10.494
X44.229Y10.676
Y10.746Z6.81
Y10.824Z6.795
Y13.904Z6.953
Y16.749Z7.08
Y19.57Z7.185
Y22.349Z7.27
Y25.221Z7.338
Y27.947Z7.384
Y30.874Z7.412
Y36.142Z7.421
Y39.653Z7.407
Y42.512Z7.375
Y45.17Z7.327
Y48.015Z7.256
Y50.875Z7.165
Y53.736Z7.053
Y56.54Z6.924
Y59.025Z6.795
Y59.104Z6.81
Y59.173Z6.827
Y59.199
X44.265Y59.381
X44.368Y59.535
X44.523Y59.639
X44.705Y59.675
X46.292
X46.474Y59.639
X46.629Y59.535
X46.732Y59.381
X46.768Y59.199
Y59.129Z6.81
Y59.051Z6.795
Y56.521Z6.927
Y53.705Z7.056
Y50.913Z7.165
Y48.074Z7.256
Y45.26Z7.326
Y42.485Z7.377
Y39.824Z7.407
Y36.117Z7.422
Y30.85Z7.413
Y27.923Z7.385
Y25.197Z7.339
Y22.33Z7.271
Y19.556Z7.186
Y16.739Z7.081
Y13.897Z6.954
Y10.8Z6.795
Y10.722Z6.811
Y10.652Z6.827
Y10.627
X46.805Y10.445
X46.908Y10.29
X47.062Y10.187
X47.245Y10.151
X48.832
X49.014Y10.187
X49.169Y10.29
X49.272Y10.445
X49.308Y10.627
Y10.697Z6.811
Y10.775Z6.795
Y13.893Z6.956
Y16.732Z7.082
Y19.545Z7.188
Y22.316Z7.273
Y25.134Z7.339
Y27.831Z7.385
Y30.953Z7.415
Y36.025Z7.424
Y39.732Z7.409
Y42.586Z7.376
Y45.189Z7.33
Y48.027Z7.259
Y50.879Z7.168
Y53.68Z7.059
Y56.558Z6.926
Y59.076Z6.795
Y59.154Z6.81
Y59.224Z6.827
Y59.249
X49.345Y59.431
X49.448Y59.586
X49.602Y59.689
X49.785Y59.725
X51.372
X51.554Y59.689
X51.709Y59.586
X51.812Y59.431
X51.848Y59.249
Y59.179Z6.81
Y59.101Z6.795
Y59.1
Y56.574Z6.927
Y53.699Z7.059
Y50.903Z7.168
Y48.054Z7.259
Y45.22Z7.33
Y42.404Z7.381
Y39.718Z7.411
Y36.011Z7.425
Y30.938Z7.416
Y27.817Z7.387
Y25.124Z7.341
Y22.31Z7.274
Y19.542Z7.189
Y16.732Z7.083
Y13.897Z6.957
Y10.75Z6.795
Y10.749
Y10.671Z6.811
Y10.602Z6.827
Y10.576
X51.884Y10.394
X51.988Y10.24
X52.142Y10.136
X52.324Y10.1
X53.912
X54.094Y10.136
X54.249Y10.24
X54.352Y10.394
X54.388Y10.576
Y10.646Z6.811
Y10.724Z6.795
Y13.894Z6.958
Y16.726Z7.085
Y19.532Z7.19
Y22.296Z7.275
Y25.107Z7.342
Y27.992Z7.39
Y30.918Z7.418
Y35.991Z7.427
Y39.893Z7.411
Y42.384Z7.383
Y45.195Z7.333
Y48.118Z7.259
Y50.945Z7.168
Y53.727Z7.059
Y56.597Z6.927
Y59.126Z6.795
Y59.204Z6.81
Y59.274Z6.827
Y59.299
X54.424Y59.481
X54.528Y59.636
X54.682Y59.739
X54.864Y59.775
X56.452
X56.634Y59.739
X56.788Y59.636
X56.892Y59.481
X56.928Y59.299
Y59.229Z6.81
Y59.151Z6.795
Y56.664Z6.925
Y53.741Z7.06
Y50.964Z7.169
Y48.14Z7.26
Y45.221Z7.333
Y42.63Z7.38
Y39.776Z7.413
Y36.362Z7.428
Y30.997Z7.42
Y27.875Z7.39
Y25.161Z7.344
Y22.309Z7.277
Y19.455Z7.189
Y16.654Z7.083
Y13.826Z6.957
Y10.699Z6.795
Y10.621Z6.81
Y10.551Z6.827
Y10.526
X56.964Y10.344
X57.067Y10.189
X57.222Y10.086
X57.404Y10.05
X58.992
X59.174Y10.086
X59.328Y10.189
X59.432Y10.344
X59.468Y10.526
Y10.596Z6.81
Y10.674Z6.795
Y13.831Z6.958
Y16.655Z7.085
Y19.453Z7.19
Y22.304Z7.278
Y25.153Z7.346
Y27.862Z7.392
Y30.983Z7.421
Y36.056Z7.43
Y39.763Z7.415
Y42.616Z7.382
Y45.255Z7.334
Y48.078Z7.263
Y50.991Z7.169
Y53.829Z7.058
Y56.685Z6.926
Y59.176Z6.795
Y59.254Z6.81
Y59.324Z6.827
Y59.349
X59.504Y59.531
X59.607Y59.686
X59.762Y59.789
X59.944Y59.825
X61.531
X61.714Y59.789
X61.868Y59.686
X61.971Y59.531
X62.008Y59.349
Y59.279Z6.81
Y59.201Z6.795
Y59.2
Y56.701Z6.926
Y53.785Z7.061
Y51.002Z7.17
Y48.093Z7.264
Y45.274Z7.335
Y42.521Z7.385
Y39.667Z7.418
Y35.96Z7.432
Y30.888Z7.422
Y27.961Z7.394
Y25.089Z7.346
Y22.289Z7.279
Y19.442Z7.191
Y16.648Z7.086
Y13.763Z6.957
Y10.649Z6.795
Y10.571Z6.81
Y10.501Z6.827
Y10.476
X62.044Y10.294
X62.147Y10.139
X62.302Y10.036
X62.484Y10
X64.071
X64.254Y10.036
X64.408Y10.139
X64.511Y10.294
X64.548Y10.476
Y10.546Z6.81
Y10.624Z6.795
Y13.796Z6.959
Y16.613Z7.086
Y19.404Z7.192
Y22.247Z7.28
Y25.043Z7.347
Y27.913Z7.395
Y30.839Z7.424
Y36.107Z7.433
Y39.814Z7.418
Y42.668Z7.384
Y45.248Z7.337
Y48.156Z7.264
Y50.987Z7.173
Y53.829Z7.061
Y56.742Z6.926
Y59.225Z6.795
Y59.304Z6.811
Y59.374Z6.827
Y59.399
X64.584Y59.581
X64.687Y59.735
X64.842Y59.839
X65.024Y59.875
X66.611
X66.793Y59.839
X66.948Y59.735
X67.051Y59.581
X67.087Y59.399
Y59.329Z6.811
Y59.25Z6.795
Y56.754Z6.926
Y53.845Z7.062
Y51.006Z7.173
Y48.178Z7.265
Y45.274Z7.338
Y42.645Z7.386
Y39.792Z7.419
Y36.085Z7.435
Y30.817Z7.425
Y27.891Z7.396
Y25.026Z7.348
Y22.233Z7.281
Y19.393Z7.193
Y16.606Z7.087
Y13.728Z6.958
Y10.599Z6.795
Y10.521Z6.811
Y10.451Z6.827
Y10.426
X67.124Y10.244
X67.227Y10.09
X67.381Y9.986
X67.564Y9.95
X69.151
X69.333Y9.986
X69.488Y10.09
X69.591Y10.244
X69.627Y10.426
Y10.496Z6.811
Y10.574Z6.795
Y13.725Z6.959
Y16.524Z7.085
Y19.384Z7.194
Y22.219Z7.282
Y25.008Z7.349
Y27.87Z7.398
Y30.797Z7.426
Y36.065Z7.436
Y39.772Z7.421
Y42.458Z7.391
Y45.368Z7.337
Y48.176Z7.266
Y50.999Z7.175
Y53.899Z7.061
Y56.749Z6.928
Y59.276Z6.795
Y59.354Z6.811
Y59.424Z6.827
Y59.449
X69.664Y59.631
X69.767Y59.786
X69.921Y59.889
X70.104Y59.925
X71.691
X71.873Y59.889
X72.028Y59.786
X72.131Y59.631
X72.167Y59.449
Y59.379Z6.811
Y59.301Z6.795
Y56.784Z6.928
Y53.88Z7.063
Y51.048Z7.175
Y48.153Z7.269
Y45.349Z7.339
Y42.444Z7.393
Y39.757Z7.423
Y36.05Z7.438
Y30.978Z7.429
Y27.856Z7.399
Y24.999Z7.35
Y22.214Z7.283
Y19.381Z7.195
Y16.524Z7.087
Y13.665Z6.957
Y10.549Z6.795
Y10.471Z6.811
Y10.401Z6.827
Y10.376
X72.203Y10.194
X72.307Y10.039
X72.461Y9.936
X72.643Y9.9
X74.231
X74.413Y9.936
X74.568Y10.039
X74.671Y10.194
X74.707Y10.376
Y10.446Z6.811
Y10.524Z6.795
Y13.662Z6.959
Y16.529Z7.088
Y19.382Z7.197
Y22.21Z7.284
Y24.992Z7.352
Y27.847Z7.4
Y30.968Z7.43
Y36.041Z7.439
Y39.748Z7.424
Y42.434Z7.394
Y45.337Z7.341
Y48.23Z7.268
Y51.046Z7.176
Y53.939Z7.062
Y56.777Z6.93
Y59.326Z6.795
Y59.404Z6.81
Y59.474Z6.827
Y59.499
X74.743Y59.682
X74.847Y59.836
X75.001Y59.939
X75.183Y59.976
X76.771
X76.953Y59.939
X77.107Y59.836
X77.211Y59.682
X77.247Y59.499
Y59.43Z6.81
Y59.351Z6.795
Y56.822Z6.929
Y53.923Z7.064
Y51.098Z7.176
Y48.209Z7.27
Y45.319Z7.343
Y42.586Z7.393
Y39.735Z7.426
Y36.223Z7.441
Y30.955Z7.432
Y27.834Z7.402
Y24.981Z7.353
Y22.202Z7.286
Y19.377Z7.198
Y16.528Z7.09
Y13.664Z6.96
Y10.499Z6.795
Y10.421Z6.81
Y10.351Z6.827
Y10.326
X77.283Y10.143
X77.386Y9.989
X77.541Y9.886
X77.723Y9.849
X79.311
X79.493Y9.886
X79.647Y9.989
X79.751Y10.143
X79.787Y10.326
Y10.396Z6.81
Y10.474Z6.795
Y13.66Z6.962
Y16.52Z7.091
Y19.367Z7.199
Y22.189Z7.287
Y24.965Z7.354
Y27.815Z7.403
Y30.937Z7.434
Y36.265Z7.442
Y39.716Z7.428
Y42.568Z7.395
Y45.297Z7.345
Y48.21Z7.271
Y51.095Z7.178
Y53.98Z7.063
Y56.799Z6.931
Y59.377Z6.795
Y59.455Z6.81
Y59.525Z6.827
Y59.55
X79.823Y59.732
X79.926Y59.887
X80.081Y59.99
X80.263Y60.026
X81.85
X82.033Y59.99
X82.187Y59.887
X82.29Y59.732
X82.327Y59.55
Y59.48Z6.81
Y59.402Z6.795
Y59.401
Y56.874Z6.929
Y53.989Z7.064
Y51.11Z7.178
Y48.229Z7.272
Y45.319Z7.346
Y42.545Z7.397
Y39.694Z7.429
Y36.377Z7.444
Y30.914Z7.435
Y27.793Z7.404
Y24.948Z7.355
Y22.175Z7.288
Y19.357Z7.2
Y16.514Z7.092
Y13.594Z6.96
Y10.449Z6.795
Y10.448
Y10.37Z6.81
Y10.3Z6.827
Y10.275
X82.363Y10.093
X82.466Y9.939
X82.621Y9.835
X82.803Y9.799
X84.39
X84.573Y9.835
X84.727Y9.939
X84.83Y10.093
X84.867Y10.275
Y10.345Z6.81
Y10.423Z6.795
Y13.623Z6.963
Y16.476Z7.092
Y19.315Z7.2
Y22.129Z7.288
Y25.061Z7.359
Y27.906Z7.407
Y31.125Z7.438
Y36.88Z7.444
Y39.807Z7.43
Y42.492Z7.399
Y45.38Z7.346
Y48.26Z7.273
Y51.135Z7.179
Y54.017Z7.064
Y56.891Z6.93
Y59.426Z6.795
Y59.427
Y59.505Z6.81
Y59.575Z6.827
Y59.6
X84.903Y59.782
X85.006Y59.937
X85.16Y60.04
X85.343Y60.076
X86.93
X87.112Y60.04
X87.267Y59.937
X87.37Y59.782
X87.406Y59.6
Y59.53Z6.81
Y59.452Z6.795
Y56.928Z6.929
Y53.994Z7.067
Y51.115Z7.181
Y48.233Z7.275
Y45.355Z7.348
Y42.471Z7.401
Y39.786Z7.432
Y36.908Z7.446
Y31.007Z7.439
Y27.885Z7.408
Y25.045Z7.36
Y22.117Z7.289
Y19.305Z7.201
Y16.469Z7.093
Y13.556Z6.961
Y10.399Z6.795
Y10.321Z6.811
Y10.251Z6.827
Y10.226
X87.443Y10.044
X87.546Y9.889
X87.7Y9.786
X87.883Y9.75
X89.47
X89.652Y9.786
X89.807Y9.889
X89.91Y10.044
X89.946Y10.226
Y10.296Z6.811
Y10.374Z6.795
Y13.56Z6.962
Y16.406Z7.092
Y19.222Z7.2
Y22.121Z7.291
Y25.045Z7.361
Y27.883Z7.41
Y31.005Z7.441
Y36.858Z7.448
Y39.784Z7.433
Y42.47Z7.403
Y45.351Z7.35
Y48.237Z7.277
Y51.192Z7.18
Y54.056Z7.066
Y56.93Z6.931
Y59.476Z6.795
Y59.555Z6.81
Y59.625Z6.827
Y59.65
X89.982Y59.832
X90.086Y59.986
X90.24Y60.09
X90.422Y60.126
X92.01
X92.192Y60.09
X92.347Y59.986
X92.45Y59.832
X92.486Y59.65
Y59.58Z6.81
Y59.501Z6.795
Y56.939Z6.932
Y54.068Z7.067
Y51.206Z7.181
Y48.256Z7.278
Y45.373Z7.351
Y42.631Z7.402
Y39.78Z7.435
Y36.853Z7.449
Y31Z7.442
Y27.879Z7.411
Y24.882Z7.36
Y22.125Z7.293
Y19.228Z7.202
Y16.4Z7.093
Y13.494Z6.961
Y10.349Z6.795
Y10.27Z6.811
Y10.201Z6.827
Y10.175
X92.522Y9.993
X92.626Y9.839
X92.78Y9.735
X92.962Y9.699
X94.55
X94.732Y9.735
X94.886Y9.839
X94.99Y9.993
X95.026Y10.175
Y10.245Z6.811
Y10.324Z6.795
Y13.491Z6.962
Y16.393Z7.094
Y19.218Z7.203
Y22.111Z7.294
Y24.864Z7.361
Y27.859Z7.413
Y31.176Z7.445
Y37.419Z7.45
Y39.955Z7.434
Y42.611Z7.403
Y45.349Z7.353
Y48.322Z7.277
Y51.192Z7.183
Y54.061Z7.069
Y56.984Z6.931
Y59.527Z6.795
Y59.605Z6.81
Y59.675Z6.827
Y59.7
X95.062Y59.882
X95.165Y60.037
X95.32Y60.14
X95.502Y60.176
X97.09
X97.272Y60.14
X97.426Y60.037
X97.53Y59.882
X97.566Y59.7
Y59.63Z6.81
Y59.552Z6.795
Y59.551
Y57.012Z6.931
Y54.092Z7.069
Y51.227Z7.183
Y48.284Z7.28
Y45.408Z7.353
Y42.72Z7.403
Y40.063Z7.435
Y37.527Z7.451
Y31.162Z7.446
Y27.845Z7.414
Y24.855Z7.362
Y22.105Z7.295
Y19.217Z7.204
Y16.32Z7.093
Y13.496Z6.964
Y10.298Z6.795
Y10.22Z6.81
Y10.15Z6.827
Y10.125
X97.602Y9.943
X97.705Y9.788
X97.86Y9.685
X98.042Y9.649
X99.629
X99.812Y9.685
X99.966Y9.788
X100.069Y9.943
X100.106Y10.125
Y10.195Z6.81
Y10.273Z6.795
Y13.429Z6.962
Y16.313Z7.094
Y19.205Z7.205
Y22.091Z7.296
Y25.002Z7.367
Y27.826Z7.415
Y30.85Z7.445
Y33.92Z7.448
Z6.794
Y33.956Z6.612
Y34.059Z6.457
Y34.213Z6.354
Y34.395Z6.317
Y35.453Z6.316
Y35.636Z6.352
Y35.79Z6.455
Y35.894Z6.609
Y35.93Z6.791
Z6.794
Y35.931Z7.448
Y39.832Z7.44
Y42.518Z7.408
Y45.415Z7.355
Y48.287Z7.281
Y51.226Z7.185
Y54.152Z7.067
Y57.012Z6.932
Y59.576Z6.795
Y59.577
Y59.655Z6.81
Y59.725Z6.827
Y59.75
X100.142Y59.932
X100.245Y60.087
X100.4Y60.19
X100.582Y60.226
X102.169
X102.352Y60.19
X102.506Y60.087
X102.609Y59.932
X102.646Y59.75
Y59.68Z6.81
Y59.602Z6.795
Y57.075Z6.93
Y54.155Z7.069
Y51.241Z7.186
Y48.304Z7.282
Y45.435Z7.356
Y42.588Z7.408
Y39.513Z7.444
Y35.807Z7.452
Y35.806Z6.794
Z6.792
Y35.769Z6.609
Y35.666Z6.455
Y35.511Z6.352
Y35.329Z6.316
Y34.52Z6.317
Y34.338Z6.354
Y34.184Z6.457
Y34.081Z6.612
Y34.044Z6.794
Z7.452
Y30.936Z7.448
Y27.815Z7.417
Y24.832Z7.365
Y22.089Z7.297
Y19.207Z7.207
Y16.318Z7.095
Y13.426Z6.963
Y10.248Z6.795
Y10.17Z6.81
Y10.1Z6.827
Y10.075
X102.682Y9.893
X102.785Y9.738
X102.94Y9.635
X103.122Y9.599
X104.709
X104.891Y9.635
X105.046Y9.738
X105.149Y9.893
X105.185Y10.075
Y10.145Z6.81
Y10.223Z6.795
Y13.385Z6.963
Y16.262Z7.095
Y19.147Z7.206
Y22.024Z7.297
Y24.883Z7.367
Y27.669Z7.416
Y30.79Z7.448
Y35.473Z7.458
Y39.57Z7.444
Y42.614Z7.41
Y45.475Z7.356
Y48.327Z7.283
Y51.269Z7.186
Y54.123Z7.072
Y57.043Z6.934
Y59.627Z6.795
Y59.705Z6.811
Y59.775Z6.827
Y59.8
X105.222Y59.982
X105.325Y60.137
X105.479Y60.24
X105.662Y60.276
X107.249
X107.431Y60.24
X107.586Y60.137
X107.689Y59.982
X107.725Y59.8
Y59.73Z6.811
Y59.652Z6.795
Y57.079Z6.933
Y54.162Z7.071
Y51.238Z7.189
Y48.385Z7.283
Y45.432Z7.359
Y42.592Z7.411
Y39.743Z7.444
Y35.451Z7.459
Y30.963Z7.45
Y27.842Z7.42
Y24.864Z7.369
Y22.009Z7.298
Y19.134Z7.208
Y16.252Z7.096
Y13.378Z6.964
Y10.198Z6.795
Y10.119Z6.81
Y10.05Z6.827
Y10.025
X107.762Y9.842
X107.865Y9.688
X108.019Y9.585
X108.202Y9.548
X109.789
X109.971Y9.585
X110.126Y9.688
X110.229Y9.842
X110.265Y10.025
Y10.094Z6.81
Y10.173Z6.795
Y13.383Z6.965
Y16.264Z7.098
Y19.143Z7.209
Y22.015Z7.3
Y24.867Z7.37
Y27.84Z7.421
Y30.767Z7.451
Y35.449Z7.461
Y39.742Z7.446
Y42.621Z7.412
Y45.458Z7.36
Y48.408Z7.283
Y51.258Z7.189
Y54.18Z7.072
Y57.149Z6.931
Y59.677Z6.795
Y59.756Z6.81
Y59.825Z6.827
Y59.851
X110.301Y60.033
X110.405Y60.187
X110.559Y60.291
X110.741Y60.327
X112.329
X112.511Y60.291
X112.666Y60.187
X112.769Y60.033
X112.805Y59.851
Y59.781Z6.81
Y59.702Z6.795
Y57.13Z6.934
Y54.22Z7.072
Y51.303Z7.189
Y48.381Z7.286
Y45.435Z7.362
Y42.767Z7.411
Y39.722Z7.447
Y35.82Z7.462
Y30.943Z7.453
Y27.821Z7.423
Y24.85Z7.371
Y22.002Z7.301
Y19.133Z7.21
Y16.258Z7.099
Y13.38Z6.967
Y10.148Z6.795
Y10.07Z6.811
Y10Z6.827
Y9.975
X112.841Y9.793
X112.945Y9.638
X113.099Y9.535
X113.281Y9.499
X114.869
X115.051Y9.535
X115.205Y9.638
X115.309Y9.793
X115.345Y9.975
Y10.045Z6.811
Y10.123Z6.795
Y13.313Z6.965
Y16.25Z7.1
Y19.123Z7.211
Y21.987Z7.302
Y24.832Z7.372
Y27.799Z7.424
Y30.921Z7.454
Y35.993Z7.464
Y39.895Z7.447
Y42.745Z7.413
Y45.455Z7.363
Y48.398Z7.287
Y51.317Z7.19
Y54.232Z7.073
Y57.194Z6.932
Y59.727Z6.795
Y59.806Z6.81
Y59.875Z6.827
Y59.901
X115.381Y60.083
X115.484Y60.237
X115.639Y60.341
X115.821Y60.377
X117.409
X117.591Y60.341
X117.745Y60.237
X117.849Y60.083
X117.885Y59.901
Y59.831Z6.81
Y59.752Z6.795
Y57.193Z6.933
Y54.234Z7.074
Y51.323Z7.192
Y48.408Z7.288
Y45.444Z7.365
Y42.57Z7.418
Y39.886Z7.449
Y35.594Z7.465
Y30.911Z7.456
Y27.79Z7.425
Y24.825Z7.374
Y21.983Z7.304
Y19.121Z7.213
Y16.179Z7.098
Y13.318Z6.966
Y10.098Z6.795
Y10.02Z6.81
Y9.95Z6.827
Y9.925
X117.921Y9.742
X118.024Y9.588
X118.179Y9.485
X118.361Y9.448
X119.948
X120.131Y9.485
X120.285Y9.588
X120.388Y9.742
X120.425Y9.925
Y9.994Z6.81
Y10.073Z6.795
Y13.252Z6.965
Y16.182Z7.1
Y19.031Z7.211
Y21.979Z7.305
Y24.818Z7.375
Y27.778Z7.427
Y30.9Z7.457
Y35.777Z7.467
Y39.874Z7.45
Y42.559Z7.42
Y45.545Z7.364
Y48.389Z7.29
Y51.316Z7.193
Y54.288Z7.073
Y57.243Z6.932
Y59.777Z6.795
Y59.856Z6.81
Y59.926Z6.827
Y59.951
X120.461Y60.133
X120.564Y60.287
X120.719Y60.391
X120.901Y60.427
X122.488
X122.671Y60.391
X122.825Y60.287
X122.928Y60.133
X122.965Y59.951
